!!!!SEGMENT: pl-wtm--r-258-m--002_moniuszko-stanislaw--msza-et-in-terra.krn
!!!cenid: 18xx:2536
!!!COM: Moniuszko, Stanisław
!!!COM-rismID: pe30008351
!!!CDT: 1819/05/05-1872/06/04
!!!CNT: Polish
!!!OPR: Msza
!!!OTL: Et in terra
!!!OMV: 002
!!!PDT: 1870
!!!AGN: Sacred; Mass
!!!SMS-siglum: PL-Wtm
!!!SMS-shelfmark: R 258/M
!!!SMS-shelfwork: 001-002 M
!!!SMS-variant:
!!!SMS-altvar:
!!!NIFC-rismSourceID: 1001095348
!!!NIFC-islandoraID:
!!!URL-pdf-islandora:
!!!URL-scan:
!!!ONB-nifc: UWAGA: części Mszy: 1. Kyrie, 2. Et in terra, 3. Graduale, 4. Credo, 5. Offertorium, 6. Sanctus, 7. Benedictus, 8. Agnus
!!!OMD: Moderato.
!!!AIN: 1 alto 1 bass 1 empty 1 soprn 1 tenor
!!!key:
**kern	**kern	**dynam	**kern	**text	**dynam	**kern	**text	**dynam	**kern	**text	**text	**dynam	**kern	**text	**dynam
*part5	*part5	*part5	*part4	*part4	*part4	*part3	*part3	*part3	*part2	*part2	*part2	*part2	*part1	*part1	*part1
*staff6	*staff5	*	*staff4	*staff4	*	*staff3	*staff3	*	*staff2	*staff2	*staff2	*	*staff1	*staff1	*
*Iempty	*Iorgan	*	*Ibass	*	*	*Itenor	*	*	*Ialto	*	*	*	*Isoprn	*	*
*	*I"Organo	*	*I"Basso	*	*	*I"Tenore	*	*	*I"Alto	*	*	*	*I"Soprano	*	*
*	*I'Org.	*	*I'B.	*	*	*I'T.	*	*	*I'A.	*	*	*	*I'S.	*	*
*clefF4	*clefG2	*	*clefF4	*	*	*clefGv2	*	*	*clefG2	*	*	*	*clefG2	*	*
*k[b-e-a-]	*k[b-e-a-]	*	*k[b-e-a-]	*	*	*k[b-e-a-]	*	*	*k[b-e-a-]	*	*	*	*k[b-e-a-]	*	*
*E-:	*E-:	*	*E-:	*	*	*E-:	*	*	*E-:	*	*	*	*E-:	*	*
*M4/4	*M4/4	*	*M4/4	*	*	*M4/4	*	*	*M4/4	*	*	*	*M4/4	*	*
*met(c)	*met(c)	*	*met(c)	*	*	*met(c)	*	*	*met(c)	*	*	*	*met(c)	*	*
=1	=1	=1	=1	=1	=1	=1	=1	=1	=1	=1	=1	=1	=1	=1	=1
*^	*	*	*	*	*	*	*	*	*	*	*	*	*	*	*
!!LO:TX:t=P:problem:all\right:global
!	!	!	!	!	!	!	!LO:TX:a:t=P:w źródle brak przenośnika oktawowego dla partii Tenore	!	!	!	!	!	!	!	!	!
(2d-X\	1r	[1f	.	1r	.	.	1r	.	.	1r	.	.	.	1r	.	.
2c\	.	.	.	.	.	.	.	.	.	.	.	.	.	.	.	.
=2	=2	=2	=2	=2	=2	=2	=2	=2	=2	=2	=2	=2	=2	=2	=2	=2
2B-\	1r	1f]	.	1r	.	.	1r	.	.	1r	.	.	.	1r	.	.
2An\)	.	.	.	.	.	.	.	.	.	.	.	.	.	.	.	.
=3	=3	=3	=3	=3	=3	=3	=3	=3	=3	=3	=3	=3	=3	=3	=3	=3
!	!	!	!	!	!	!	!	!	!	!	!	!	!LO:DY:a	!	!	!LO:DY:a
2B-\	1r	(2f/	.	1r	.	.	1r	.	.	4.B-/	.	.	p	4.f 4.d/	et	p
.	.	.	.	.	.	.	.	.	.	8B-/	.	.	.	8f 8d/	in	.
4f 4d\	.	4b-/	.	.	.	.	.	.	.	4d/	.	.	.	4b- 4f/	ter-	.
4f\	.	4cc 4an/	.	.	.	.	.	.	.	4f/	.	.	.	4cc 4an\	-ra	.
*v	*v	*	*	*	*	*	*	*	*	*	*	*	*	*	*	*
=4	=4	=4	=4	=4	=4	=4	=4	=4	=4	=4	=4	=4	=4	=4	=4
2.B-/	2.dd 2.b- 2.f/)	.	1r	.	.	1r	.	.	[2f [2B-/	.	.	.	[2dd [2b-\	pax	.
.	.	.	.	.	.	.	.	.	8f] 8B-/]	.	.	.	8dd] 8b-\]	.	.
.	.	.	.	.	.	.	.	.	8r	.	.	.	8r	.	.
4b-\	4dd/	.	.	.	.	.	.	.	4b-\	.	.	.	4dd\	in	.
=5	=5	=5	=5	=5	=5	=5	=5	=5	=5	=5	=5	=5	=5	=5	=5
*	*	*	*	*	*	*	*	*	*^	*	*	*	*	*	*
4.b-\	(4.ff 4.dd/	.	1r	.	.	1r	.	.	4.b-^/	4.b-\	.	.	.	4.ff 4.dd^\	ter-	.
8B-\	8ee- 8cc/	.	.	.	.	.	.	.	8B-/	8ryy	.	.	.	8ee- 8cc\	-ra	.
8B-\	8dd 8b-/)	.	.	.	.	.	.	.	8B-/	2ryy	.	.	.	8dd 8b-\	pax	.
8ryy	8r	.	.	.	.	.	.	.	8r	.	.	.	.	8r	.	.
!	!	!	!	!	!	!	!	!	!	!	!	!	!LO:DY:a	!	!	!LO:DY:a
4d\	4b-/	.	.	.	.	.	.	.	4d/	.	.	.	pp	4b-\	ho-	pp
*	*	*	*	*	*	*	*	*	*v	*v	*	*	*	*	*	*
=6	=6	=6	=6	=6	=6	=6	=6	=6	=6	=6	=6	=6	=6	=6	=6
*	*	*	*	*	*	*	*	*	*	*	*	*	*^	*	*
4.f\	(4.dd 4.b-/	.	1r	.	.	1r	.	.	4.f/	.	.	.	4.dd/	4.b-\	-mi-	.
8f 8e-\	8cc/	.	.	.	.	.	.	.	8e-/	.	.	.	8cc/	8f\	-ni-	.
4f 4d\	4b-/)	.	.	.	.	.	.	.	8d/	.	.	.	8b-/	8f\	-bus	.
.	.	.	.	.	.	.	.	.	8r	.	.	.	8r	8ryy	.	.
4d\	(4b- 4f/	.	.	.	.	.	.	.	(4d^/	.	.	.	(4b-^/	(4f\	bo-	.
=7	=7	=7	=7	=7	=7	=7	=7	=7	=7	=7	=7	=7	=7	=7	=7	=7
*	*^	*	*	*	*	*	*	*	*	*	*	*	*	*	*	*
4e-\	4g/	2ryy	.	1r	.	.	1r	.	.	4e-/)	.	.	.	4g/)	4g\)	.	.
4d\	4b- 4f/	.	.	.	.	.	.	.	.	4d/	.	.	.	4b-/	4b- 4f\	-nae	.
4c\	4ee-/	8g/L	.	.	.	.	.	.	.	4c/	.	.	.	4ee-/	8g\L	vo-	.
.	.	8a-/J	.	.	.	.	.	.	.	.	.	.	.	.	8an\J	.	.
8d\L	4dd/	4ryy	.	.	.	.	.	.	.	8d/L	.	.	.	4dd/	4b-\	-lun	.
8e-\J	.	.	.	.	.	.	.	.	.	8e-/J	.	.	.	.	.	.	.
*	*v	*v	*	*	*	*	*	*	*	*	*	*	*	*	*	*	*
=8	=8	=8	=8	=8	=8	=8	=8	=8	=8	=8	=8	=8	=8	=8	=8	=8
(2b-\	1cc 1f)	.	1r	.	.	1r	.	.	1f	.	.	.	1cc	2b-\	ta-	.
2an\)	.	.	.	.	.	.	.	.	.	.	.	.	.	2an\	-tis	.
!!LO:LB:g=original
*	*	*	*	*	*	*	*	*	*	*	*	*	*v	*v	*	*
=9	=9	=9	=9	=9	=9	=9	=9	=9	=9	=9	=9	=9	=9	=9	=9
*^	*	*	*^	*	*	*	*	*	*	*	*	*	*	*	*
!	!	!	!	!	!	!	!LO:DY:a	!	!	!LO:DY:a	!	!	!	!	!	!	!
(2F 2BB-/	1r	4dd 4b- 4f/	.	4.BB-/	4.ryy	.	p	4.F/	et	p	4f/	.	.	.	4dd 4b-\	tis.	.
.	.	4ryy	.	.	.	.	.	.	.	.	4r	.	.	.	4r	.	.
.	.	.	.	8D/	8D\	.	.	8F/	in	.	.	.	.	.	.	.	.
4B- 4F 4D/	.	2ryy	.	4F 4D\	2ryy	.	.	4B-\	ter-	.	2r	.	.	.	2r	.	.
4c 4A- 4F/)	.	.	.	4A- 4F\	.	.	.	4c\	-ra	.	.	.	.	.	.	.	.
=10	=10	=10	=10	=10	=10	=10	=10	=10	=10	=10	=10	=10	=10	=10	=10	=10	=10
[2d [2B-/	1r	2ryy	.	[2B-/	[2B-\	.	.	[2d\	pax	.	1r	.	.	.	1r	.	.
8d] 8B-/]	.	8r	.	8B-/]	8B-\]	.	.	8d\]	.	.	.	.	.	.	.	.	.
8r	.	4.d/	.	8r	8ryy	.	.	8r	.	.	.	.	.	.	.	.	.
4B-/	.	.	.	4B-/	4B-\	.	.	4d\	in	.	.	.	.	.	.	.	.
*	*	*	*	*v	*v	*	*	*	*	*	*	*	*	*	*	*	*
=11	=11	=11	=11	=11	=11	=11	=11	=11	=11	=11	=11	=11	=11	=11	=11	=11
4.B-/	1r	(4.f 4.d/	.	4.d 4.B-\	.	.	4.f^\	ter-	.	1r	.	.	.	1r	.	.
8BB-/	.	8e- 8c/	.	8c 8BB-\	.	.	8e-\	-ra	.	.	.	.	.	.	.	.
8BB-/	.	8d 8B-/)	.	8B- 8BB-\	.	.	8d\	pax	.	.	.	.	.	.	.	.
8r	.	8r	.	8r	.	.	8r	.	.	.	.	.	.	.	.	.
!	!	!	!	!	!	!LO:DY:a	!	!	!LO:DY:a	!	!	!	!	!	!	!
4F 4D/	.	4B-/	.	4F 4D\	.	pp	4B-\	ho-	pp	.	.	.	.	.	.	.
=12	=12	=12	=12	=12	=12	=12	=12	=12	=12	=12	=12	=12	=12	=12	=12	=12
*	*	*	*	*^	*	*	*	*	*	*	*	*	*	*	*	*
(4.F/	1r	(4.d/	.	4.F/	4.F\	.	.	4.d\	-mi-	.	1r	.	.	.	1r	.	.
8F 8E-/	.	8c/	.	8F/	8E-\	.	.	8c\	-ni-	.	.	.	.	.	.	.	.
8F 8D/)	.	8B-/)	.	8F/	8D\	.	.	8B-\	-bus	.	.	.	.	.	.	.	.
8r	.	8r	.	8r	8ryy	.	.	8r	.	.	.	.	.	.	.	.	.
4F 4D/	.	4B-/	.	(4F (4D^\	4ryy	.	.	(4B-^/	bo-	.	.	.	.	.	.	.	.
=13	=13	=13	=13	=13	=13	=13	=13	=13	=13	=13	=13	=13	=13	=13	=13	=13	=13
4E-/	1G	4G/	.	4G 4E-\))	2ryy	.	.	4F/)	.	.	1r	.	.	.	1r	.	.
4F 4E-/	.	4B-/	.	4F 4D\	.	.	.	4B-/	-nae	.	.	.	.	.	.	.	.
4G 4C/	.	4e-/	.	4G 4C\	4ryy	.	.	4e-\	vo-	.	.	.	.	.	.	.	.
8C/L	.	4e- 4c/	.	4G/	8D\L	.	.	4e- 4c\	-lun	.	.	.	.	.	.	.	.
8E-/J	.	.	.	.	8E-\J	.	.	.	.	.	.	.	.	.	.	.	.
=14	=14	=14	=14	=14	=14	=14	=14	=14	=14	=14	=14	=14	=14	=14	=14	=14	=14
*	*	*^	*	*	*	*	*	*^	*	*	*	*	*	*	*	*	*
2A-X 2F/	1r	1d	2c\	.	(2A-X/	(2F\	.	.	1d	(2c\	ta-	.	1r	.	.	.	1r	.	.
2G/	.	.	2Bn\	.	2G/)	2G\)	.	.	.	2Bn\)	.	.	.	.	.	.	.	.	.
*	*	*v	*v	*	*	*	*	*	*v	*v	*	*	*	*	*	*	*	*	*
*	*	*	*	*v	*v	*	*	*	*	*	*	*	*	*	*	*	*
=15	=15	=15	=15	=15	=15	=15	=15	=15	=15	=15	=15	=15	=15	=15	=15	=15
[2G [2C/	1r	[2e- [2c/	.	[2G [2C\	.	.	[2e- [2c\	-tis	.	1r	.	.	.	1r	.	.
8G] 8C/]	.	8e-] 8c/]	.	8G] 8C\]	.	.	8e-] 8c\]	.	.	.	.	.	.	.	.	.
8r	.	8r	.	8r	.	.	8r	.	.	.	.	.	.	.	.	.
4r	.	4r	.	4r	.	.	4r	.	.	.	.	.	.	.	.	.
!!LO:PB:g=original
=16	=16	=16	=16	=16	=16	=16	=16	=16	=16	=16	=16	=16	=16	=16	=16	=16
!	!	!LO:TX:a:Bi:t=Allegro.	!	!	!	!	!	!	!	!	!	!	!	!LO:TX:a:Bi:t=Allegro.	!	!
4.c 4.A- 4.E-/	2AA-\	4.ee- 4.cc 4.a- 4.e-/	.	4.A-^\	.	f	4.c^\	.	f	4.a-^/	.	.	f	4.ee-^\	Glo-	f
8c 8A-/	.	8cc 8a- 8e-/	.	8A-\	.	.	8e-\	.	.	8a-/	.	.	.	8cc\	-ri-	.
4c/	4A-\	4cc 4a- 4e-/	.	4A-\	.	.	4e-\	.	.	4a-/	.	.	.	4cc\	-a	.
4r	4ryy	4r	.	4r	.	.	4r	.	.	4r	.	.	.	4r	.	.
=17	=17	=17	=17	=17	=17	=17	=17	=17	=17	=17	=17	=17	=17	=17	=17	=17
4.B- 4.G 4.E-/	2GG\	4.ee- 4.b- 4.e-/	.	4.G^\	.	.	4.e-^\	.	.	4.b-^/	.	.	.	4.ee-^\	glo-	.
8B- 8G/	.	8b- 8e-/	.	8G\	.	.	8e-\	.	.	8b-/	.	.	.	8b-\	-ri-	.
!	!	!LO:TX:t=P:problem=skreślona pauza 4	!	!	!	!	!	!	!	!	!	!	!	!	!	!
4B- 4G/	4G\	4b- 4e-/	.	4G\	.	.	4e-\	.	.	4b-/	.	.	.	4b-\	-a	.
4ryy	4G\	4ee- 4b- 4e-/	.	4r	.	.	4r	.	.	4r	.	.	.	4r	.	.
=18	=18	=18	=18	=18	=18	=18	=18	=18	=18	=18	=18	=18	=18	=18	=18	=18
!	!	!	!	!	!	!	!	!	!	!	!	!	!	!	!	!LO:DY:a
4ryy	4A-\	4dd 4b- 4f/	.	4A-\	.	.	4f\	.	.	4b-/	.	.	.	4dd\	in	<
4e- 4B- 4G/	4G\	4ee- 4b-\	.	4G\	.	.	4e-\	.	.	4b-/	.	.	.	4ee-\	ex-	.
4d 4B-/	4F\	4ff 4b- 4a-\	.	4F\	.	.	4d\	.	.	4b-/	.	.	.	4ff\	-cel-	.
4e- 4B-/	4E-\	4gg 4b- 4g\	.	4E-\	.	.	4e-\	.	.	4b-/	.	.	.	4gg\	-sis	[[
=19	=19	=19	=19	=19	=19	=19	=19	=19	=19	=19	=19	=19	=19	=19	=19	=19
*	*	*^	*	*	*	*	*	*	*	*	*	*	*	*	*	*
!	!	!	!	!	!	!	!	!	!	!	!	!	!	!	!	!	!LO:DY:a
(4B- 4G/	2D\	2.aa- 2.ff/	2.b-\	.	4D\	.	.	2.f\	.	.	2.b-/	.	.	.	2.aa-\	De-	>
4d 4B- 4F/	.	.	.	.	4F\	.	.	.	.	.	.	.	.	.	.	.	.
4f 4d 4B-\)	4BB-\	.	.	.	4B-\	.	.	.	.	.	.	.	.	.	.	.	.
4d/	4r	4ff/	4ff 4b-\	.	4r	.	.	4d\	.	.	4b-/	.	.	.	4ff\	-o	]
*	*	*v	*v	*	*	*	*	*	*	*	*	*	*	*	*	*	*
=20	=20	=20	=20	=20	=20	=20	=20	=20	=20	=20	=20	=20	=20	=20	=20	=20
4.e- 4.B-/	2E-\	4.gg 4.b- 4.g\	.	4.E-^\	.	.	4.e-^\	.	.	4.a-^/	.	.	.	4.gg^\	glo-	.
8B- 8G/	.	8ee- 8b- 8e-\	.	8G\	.	.	8e-\	.	.	8b-/	.	.	.	8ee-\	-ri-	.
4B- 4G/	4GG\	4ee- 4b- 4e-/	.	4G\	.	.	4e-\	.	.	4b-/	.	.	.	4ee-\	-a	.
4r	4ryy	4r	.	4r	.	.	4r	.	.	4r	.	.	.	4r	.	.
=21	=21	=21	=21	=21	=21	=21	=21	=21	=21	=21	=21	=21	=21	=21	=21	=21
*	*	*^	*	*	*	*	*	*	*	*	*	*	*	*	*	*
4.c 4.A- 4.E-/	2AA-\	4.ee- 4.a- 4.e-/	2.ryy	.	4.A-^\	.	.	4.c^\	.	.	4.a-^/	.	.	.	4.ee-^\	glo-	.
8c 8A-/	.	8cc 8a- 8e-/	.	.	8A-\	.	.	8e-\	.	.	8a-/	.	.	.	8cc\	-ri-	.
4c/	4A-\	4cc 4a- 4e-/	.	.	4A-\	.	.	4e-\	.	.	4a-/	.	.	.	4cc\	-a	.
4ryy	8A-\L	4r	8a-\L	.	4r	.	.	4r	.	.	4r	.	.	.	4r	.	.
.	8G\J	.	8g\J	.	.	.	.	.	.	.	.	.	.	.	.	.	.
*	*	*v	*v	*	*	*	*	*	*	*	*	*	*	*	*	*	*
=22	=22	=22	=22	=22	=22	=22	=22	=22	=22	=22	=22	=22	=22	=22	=22	=22
2.B-/	4.A-\	4b- 4f 4d/	.	4.A-^\	.	.	4d\	.	.	4f/	.	.	.	4b-\	in	.
.	.	4cc 4b- 4e-/	.	.	.	.	4e-\	.	.	4e-/	.	.	.	4cc\	ex-	.
.	8G\	.	.	8G\	.	.	.	.	.	.	.	.	.	.	.	.
.	4F\	4dd 4b- 4a-/	.	4F\	.	.	4B-\	.	.	4a-/	.	.	.	4dd\	-cel-	.
4e-/	8E-\L	4ee- 4b- 4g/	.	8E-\L	.	.	8B-\L	.	.	4g/	.	.	.	4ee-\	-sis	.
.	8G\J	.	.	8G\J	.	.	8e-\J	.	.	.	.	.	.	.	.	.
=23	=23	=23	=23	=23	=23	=23	=23	=23	=23	=23	=23	=23	=23	=23	=23	=23
*	*	*^	*	*	*	*	*	*	*	*	*	*	*	*	*	*
(4e-/	2B-\	2ff/	2b- 2f\	.	2B-\	.	.	2e-\	.	.	2b-/	.	.	.	2ff\	De-	.
4c/	.	.	.	.	.	.	.	.	.	.	.	.	.	.	.	.	.
8d/)	8BB-\	8b-/	8b-\	.	4BB-/	.	.	4d\	.	.	4b-/	.	.	.	4b-\	-o	.
!	!	!LO:TX:t=P:problem=zapis niewyraźny	!	!	!	!	!	!	!	!	!	!	!	!	!	!	!
!	!	!	!	!LO:DY:a	!	!	!	!	!	!	!	!	!	!	!	!	!
8r	8r	(8b-/L	4.ryy	p	.	.	.	.	.	.	.	.	.	.	.	.	.
4r	4r	8cc/	.	.	4r	.	.	4r	.	.	4r	.	.	.	4r	.	.
.	.	8b-/J)	.	.	.	.	.	.	.	.	.	.	.	.	.	.	.
!!LO:LB:g=original
*	*	*v	*v	*	*	*	*	*	*	*	*	*	*	*	*	*	*
=24	=24	=24	=24	=24	=24	=24	=24	=24	=24	=24	=24	=24	=24	=24	=24	=24
!	!	!LO:TX:t=P:problem=mixed beam	!	!	!	!	!	!	!	!	!	!	!	!	!	!
1r	1r	8ee-/L	p	1r	.	.	1r	.	.	4.e-/	.	.	p	4.ee-\	et	p
.	.	8e-/	.	.	.	.	.	.	.	.	.	.	.	.	.	.
.	.	8f/	.	.	.	.	.	.	.	.	.	.	.	.	.	.
.	.	8g/J	.	.	.	.	.	.	.	8e-/	.	.	.	8ee-\	in	.
.	.	8a-/L	.	.	.	.	.	.	.	4.cc\	.	.	.	4.ee-\	ter-	.
.	.	8g/	.	.	.	.	.	.	.	.	.	.	.	.	.	.
.	.	8f/	.	.	.	.	.	.	.	.	.	.	.	.	.	.
.	.	8e-/J	.	.	.	.	.	.	.	8a-/	.	.	.	8cc\	-ra	.
=25	=25	=25	=25	=25	=25	=25	=25	=25	=25	=25	=25	=25	=25	=25	=25	=25
1r	1r	8d/L	.	1r	.	.	1r	.	.	4a-/	.	.	.	4cc\	pax	.
.	.	8B-/	.	.	.	.	.	.	.	.	.	.	.	.	.	.
.	.	8c/	.	.	.	.	.	.	.	8g/L	.	.	.	8b-/L	ho-	.
.	.	8d/J	.	.	.	.	.	.	.	8f/J	.	.	.	8a-/J	.	.
.	.	8e-/L	.	.	.	.	.	.	.	8e-/	.	.	.	8g/	-mi-	.
.	.	8f/	.	.	.	.	.	.	.	8g/	.	.	.	8g/	-ni-	.
.	.	8e-/	.	.	.	.	.	.	.	4g/	.	.	.	4b-/	-bus	.
.	.	8d/J	.	.	.	.	.	.	.	.	.	.	.	.	.	.
=26	=26	=26	=26	=26	=26	=26	=26	=26	=26	=26	=26	=26	=26	=26	=26	=26
*	*	*^	*	*	*	*	*	*	*	*	*	*	*	*	*	*
!LO:TX:t=P:problem=mixed beam	!	!	!	!	!	!	!	!	!	!	!	!	!	!	!	!	!
8c/L	1r	4cc/	4cc 4e-\	.	1r	.	.	1r	.	.	4c/	.	.	.	4cc\	bo-	.
8C/	.	.	.	.	.	.	.	.	.	.	.	.	.	.	.	.	.
8D/	.	4ee-/	4ee- 4g\	.	.	.	.	.	.	.	4g/	.	.	.	4ee-\	-nae	.
8E-/J	.	.	.	.	.	.	.	.	.	.	.	.	.	.	.	.	.
8F/L	.	4dd/	2f\	.	.	.	.	.	.	.	4f/	.	.	.	4dd\	vo-	.
8En/	.	.	.	.	.	.	.	.	.	.	.	.	.	.	.	.	.
8F/	.	4cc/	.	.	.	.	.	.	.	.	4f/	.	.	.	4cc\	-lun-	.
8A-/J	.	.	.	.	.	.	.	.	.	.	.	.	.	.	.	.	.
=27	=27	=27	=27	=27	=27	=27	=27	=27	=27	=27	=27	=27	=27	=27	=27	=27	=27
*	*	*	*	*	*	*	*	*	*	*	*	*	*	*	*^	*	*
8A-/L	1r	2bn/	(4f\	.	1r	.	.	1r	.	.	(4f/	.	.	.	2bn/	2ryy	-ta-	.
8D/	.	.	.	.	.	.	.	.	.	.	.	.	.	.	.	.	.	.
8G/	.	.	4d\	.	.	.	.	.	.	.	4d/)	.	.	.	.	.	.	.
8F/J	.	.	.	.	.	.	.	.	.	.	.	.	.	.	.	.	.	.
8E-/L	.	8cc/L	4g\)	.	.	.	.	.	.	.	4e-/	.	.	.	8cc\L	4ryy	-tis	.
8D/	.	8dd/	.	.	.	.	.	.	.	.	.	.	.	.	8dd\J	.	.	.
8C/	.	8ee-/	4r	.	.	.	.	.	.	.	4r	.	.	.	8ee-/L	4ee-\	et	.
8B-J 8BB-/	.	8gg/J	.	.	.	.	.	.	.	.	.	.	.	.	8gg/J	.	.	.
*	*	*	*	*	*	*	*	*	*	*	*	*	*	*	*v	*v	*	*
=28	=28	=28	=28	=28	=28	=28	=28	=28	=28	=28	=28	=28	=28	=28	=28	=28	=28
!	!	!	!	!	!	!	!LO:DY:a	!	!	!LO:DY:a	!	!	!	!LO:DY:a	!	!	!LO:DY:a
8AnL 8AAn/	2AA\	4.ff 4.cc/	4f\	f	4.An^\	.	f	4.f^\	.	f	4.cc^\	.	.	f	4.ff^\	Glo-	f
8c 8C/	.	.	.	.	.	.	.	.	.	.	.	.	.	.	.	.	.
8F/	.	.	8f\L	.	.	.	.	.	.	.	.	.	.	.	.	.	.
8A/J	.	8cc/	8an\J	.	8A\	.	.	8f\	.	.	8cc\	.	.	.	8cc\	-ri-	.
!	!	!LO:TX:t=P:problem=mixed beam	!	!	!	!	!	!	!	!	!	!	!	!	!	!	!
2ryy	4A\	8ccL 8a 8f/	8c\L	.	4A\	.	.	4f\	.	.	4cc\	.	.	.	4cc\	-a	.
.	.	8f/	8f\	.	.	.	.	.	.	.	.	.	.	.	.	.	.
.	4ryy	8a/	8a\	.	4r	.	.	4r	.	.	4r	.	.	.	4r	.	.
.	.	8cc/J	8cc\J	.	.	.	.	.	.	.	.	.	.	.	.	.	.
=29	=29	=29	=29	=29	=29	=29	=29	=29	=29	=29	=29	=29	=29	=29	=29	=29	=29
8GL 8GG/	2GG\	4.ee- 4.b-/	4g\	.	4.G^\	.	.	4.g^\	.	.	4.b-^\	.	.	.	4.ee-^\	glo-	.
8B- 8BB-/	.	.	.	.	.	.	.	.	.	.	.	.	.	.	.	.	.
8E-/	.	.	8e-\L	.	.	.	.	.	.	.	.	.	.	.	.	.	.
8G/J	.	8b-/	8g\J	.	8G\	.	.	8B- 8G/	.	.	8b-\	.	.	.	8b-\	-ri-	.
2ryy	4G\	4b- 4g 4e-/	8B-\L	.	4G\	.	.	4B-/	.	.	4b-\	.	.	.	4b-\	-a	.
.	.	.	16e-\L	.	.	.	.	.	.	.	.	.	.	.	.	.	.
.	.	.	16g\J	.	.	.	.	.	.	.	.	.	.	.	.	.	.
.	4ryy	4ryy	8b-\	.	4r	.	.	4r	.	.	4r	.	.	.	4r	.	.
.	.	.	8ee-\J	.	.	.	.	.	.	.	.	.	.	.	.	.	.
=30	=30	=30	=30	=30	=30	=30	=30	=30	=30	=30	=30	=30	=30	=30	=30	=30	=30
!	!	!LO:TX:t=P:problem=zapis poprawiany	!	!	!	!	!	!	!	!	!	!	!	!	!	!	!
2B- 2F/	4r	8ddL 8b-/	4d\	.	4F\	.	.	4B-/	.	.	4b-/	.	.	.	4dd\	in	.
.	.	8f/	.	.	.	.	.	.	.	.	.	.	.	.	.	.	.
.	4F\	8d/	4ryy	.	4F\	.	.	4d\	.	.	4f/	.	.	.	4f/	ex-	.
.	.	8f/J	.	.	.	.	.	.	.	.	.	.	.	.	.	.	.
4B- 4F 4D\	2ryy	8b-/L	2ryy	.	4D/	.	.	4B-\	.	.	4f/	.	.	.	4b-\	-cel-	.
.	.	8f/	.	.	.	.	.	.	.	.	.	.	.	.	.	.	.
4B- 4F 4BB-\	.	8dd 8b- 8d/	.	.	4BB-/	.	.	4B-\	.	.	4f/	.	.	.	4dd\	-sis	.
.	.	8f/J	.	.	.	.	.	.	.	.	.	.	.	.	.	.	.
=31	=31	=31	=31	=31	=31	=31	=31	=31	=31	=31	=31	=31	=31	=31	=31	=31	=31
*	*	*	*	*	*^	*	*	*^	*	*	*	*	*	*	*	*	*
(8B-/L	2E- 2EE-\	(2cc/	2g\	.	1F	(2E-\	.	.	1e-	2B-\	De-	.	2g/	De-	.	.	1cc	De-	.
8An/	.	.	.	.	.	.	.	.	.	.	.	.	.	.	.	.	.	.	.
8c/	.	.	.	.	.	.	.	.	.	.	.	.	.	.	.	.	.	.	.
8B-/J)	.	.	.	.	.	.	.	.	.	.	.	.	.	.	.	.	.	.	.
!LO:TX:t=P:problem=zapis poprawiany	!	!	!	!	!	!	!	!	!	!	!	!	!	!	!	!	!	!	!
4A/	4F 4FF\	8f/)	8f\	.	.	2F\)	.	.	.	4An\	-o	.	4f/	-o	.	.	.	.	.
.	.	8f/L	8ryy	p	.	.	.	.	.	.	.	.	.	.	.	.	.	.	.
4r	4ryy	16a-/L	4ryy	.	.	.	.	.	.	4r	.	.	4r	.	.	.	.	.	.
.	.	16g/J	.	.	.	.	.	.	.	.	.	.	.	.	.	.	.	.	.
.	.	8f/J	.	.	.	.	.	.	.	.	.	.	.	.	.	.	.	.	.
!!LO:PB:g=original
*	*	*	*	*	*v	*v	*	*	*	*	*	*	*	*	*	*	*	*	*
*	*	*	*	*	*	*	*	*v	*v	*	*	*	*	*	*	*	*	*
=32	=32	=32	=32	=32	=32	=32	=32	=32	=32	=32	=32	=32	=32	=32	=32	=32	=32
!LO:TX:t=P:problem=zapis poprawiany	!	!	!	!	!	!	!	!	!	!	!	!	!	!	!	!	!
4B-/	4BB-\	8b-/L	2ryy	p	4B-\	o.	.	4.B-\	et	.	4.b-\	et	.	p	4b-\	-o.	.
.	.	8d/	.	.	.	.	.	.	.	.	.	.	.	.	.	.	.
8c/L	4r	8e-/	.	.	4r	.	.	.	.	.	.	.	.	.	4r	.	.
!	!	!	!	!	!	!	!	!	!	!LO:DY:a	!	!	!	!	!	!	!
8d/J	.	8f/J	.	.	.	.	.	8B-\	in	p	8b-\	in	.	.	.	.	.
8e-/L	2r	8g/L	4ryy	.	2r	.	.	4B-\	ter-	.	4b-\	ter-	.	.	2r	.	.
8d/	.	8f/J	.	.	.	.	.	.	.	.	.	.	.	.	.	.	.
8c/	.	4g/	8e-\L	.	.	.	.	4e-\	-ra	.	4g/	-ra	.	.	.	.	.
8B-/J	.	.	8d\J	.	.	.	.	.	.	.	.	.	.	.	.	.	.
*	*	*v	*v	*	*	*	*	*	*	*	*	*	*	*	*	*	*
=33	=33	=33	=33	=33	=33	=33	=33	=33	=33	=33	=33	=33	=33	=33	=33	=33
8An/L	1r	4g 4e-/	.	1r	.	.	4e-\	.	.	4g/	pax	.	.	1r	.	.
8F/	.	.	.	.	.	.	.	.	.	.	.	.	.	.	.	.
8G/	.	8fL 8d/	.	.	.	.	8d\L	.	.	8f/L	ho-	.	.	.	.	.
8A/J	.	8e-J 8c/	.	.	.	.	8c\J	.	.	8e-/J	.	.	.	.	.	.
8B-/L	.	4d/	.	.	.	.	8B-\	.	.	8d/	-mi-	.	.	.	.	.
8c/	.	.	.	.	.	.	8B-\	.	.	8d/	-ni-	.	.	.	.	.
8B-/	.	4f/	.	.	.	.	4c\	.	.	4f/	-bus	.	.	.	.	.
8A/J	.	.	.	.	.	.	.	.	.	.	.	.	.	.	.	.
=34	=34	=34	=34	=34	=34	=34	=34	=34	=34	=34	=34	=34	=34	=34	=34	=34
*	*	*^	*	*	*	*	*	*	*	*	*	*	*	*	*	*
!	!	!LO:TX:t=P:problem=mixed beam	!	!	!	!	!LO:DY:a	!	!	!	!	!	!	!	!	!	!
2.G\	1r	4a-/	8B-\L	.	4.G\	.	p	4B-\	.	.	4g/	bo-	.	.	1r	.	.
.	.	.	8c\	.	.	.	.	.	.	.	.	.	.	.	.	.	.
.	.	4b-/	8d\	.	.	.	.	4d\	.	.	4b-/	-nae	.	.	.	.	.
.	.	.	8g\J	.	8G\	.	.	.	.	.	.	.	.	.	.	.	.
.	.	4an/	8c\L	.	4G\	.	.	4c\	.	.	4an/	vo-	.	.	.	.	.
.	.	.	8e-\	.	.	.	.	.	.	.	.	.	.	.	.	.	.
4E-\	.	4g/	8c\	.	4E-\	.	.	4B-\	.	.	4g/	-lun-	.	.	.	.	.
.	.	.	8An\J	.	.	.	.	.	.	.	.	.	.	.	.	.	.
=35	=35	=35	=35	=35	=35	=35	=35	=35	=35	=35	=35	=35	=35	=35	=35	=35	=35
8An/L	4E-\	2f#X/	2ryy	.	4E-\	pax	.	2An/	.	.	2f#X/	-ta-	.	.	2r	.	.
8c/	.	.	.	.	.	.	.	.	.	.	.	.	.	.	.	.	.
8d/	8D\L	.	.	.	8D/L	ho-	.	.	.	.	.	.	.	.	.	.	.
8A/J	8C\J	.	.	.	8C/J	.	.	.	.	.	.	.	.	.	.	.	.
!	!	!	!	!	!	!	!	!	!	!	!	!	!	!	!	!	!LO:DY:a
8GL 8BB-/	2ryy	8g/L	4d\	.	8BB-/L	-mi-	.	4G/	.	.	4g/	-tis	.	.	8g/L	et	p
8D/	.	8an/	.	.	8E-/J	.	.	.	.	.	.	.	.	.	8a-/J	.	.
8G/	.	8b-/	4r	.	8G\L	-ni-	.	4r	.	.	4r	.	.	.	8b-\L	in	.
8Fn/J	.	8dd/J	.	.	8F\J	.	.	.	.	.	.	.	.	.	8dd\J	.	.
=36	=36	=36	=36	=36	=36	=36	=36	=36	=36	=36	=36	=36	=36	=36	=36	=36	=36
4E-/	1r	(4.cc/	8e-\L	.	4E-\	-bus	.	1r	.	.	8e-/L	et	.	.	4.cc\	ter-	.
.	.	.	8g\	.	.	.	.	.	.	.	8g/J	.	.	.	.	.	.
4F/	.	.	8f\	.	8F\	bo-	.	.	.	.	8f/L	in	.	.	.	.	.
.	.	8an/	8e-\J	.	8F\	-nae	.	.	.	.	8e-/J	.	.	.	8an/	-ra	.
4G/	.	8b-/L	4d\	.	4G\	vo-	.	.	.	.	4d/	ter-	.	.	8b-\L	pax	.
.	.	8cc/	.	.	.	.	.	.	.	.	.	.	.	.	8cc\J	.	.
4BB-/	.	8dd/	4b-\	.	4BB-/	-lun-	.	.	.	.	4b-/	-ra	.	.	8dd\L	ho-	.
.	.	8ff/J)	.	.	.	.	.	.	.	.	.	.	.	.	8ff\J	.	.
=37	=37	=37	=37	=37	=37	=37	=37	=37	=37	=37	=37	=37	=37	=37	=37	=37	=37
4C/	1r	(4.ee-/	8g\L	.	4C/	-ta	.	2r	.	.	8g/L	pax	.	.	4.ee-\	-mi-	.
.	.	.	8b-\J	.	.	.	.	.	.	.	8b-/J	.	.	.	.	.	.
4F/	.	.	4an\	.	4F\	.	.	.	.	.	4an/	in	.	.	.	.	.
.	.	8cc/	.	.	.	.	.	.	.	.	.	.	.	.	8cc\	-ni-	.
4BB-/	.	8dd/)	8b-\	.	4BB-/	.	.	4r	.	.	4b-/	ter-	.	.	4dd\	-bus,	.
.	.	8ryy	8r	.	.	.	.	.	.	.	.	.	.	.	.	.	.
!	!	!	!	!	!	!	!	!	!	!LO:DY:a	!	!	!	!	!	!	!
8B-/L	.	([4dd/	[4b-\	.	4r	.	.	8B-\L	in	p	4b-/	-ra	[[et	.	4dd\	in	.
8d/J	.	.	.	.	.	.	.	8d\J	.	.	.	.	.	.	.	.	.
*v	*v	*	*	*	*	*	*	*	*	*	*	*	*	*	*	*	*
=38	=38	=38	=38	=38	=38	=38	=38	=38	=38	=38	=38	=38	=38	=38	=38	=38
4g/	4.dd/]	2b-\]	.	1r	.	.	(4g\	ter-	.	2.b-/	pax	pax	.	(4.dd\	ter-	.
8f/L	.	.	.	.	.	.	8f\L	-ra	.	.	.	.	.	.	.	.
8e-/J	8ee-/	.	.	.	.	.	8e-\J	.	.	.	.	.	.	8ee-\)	-ra	.
4d/	4ff/	4ryy	.	.	.	.	4d\)	pax	.	.	.	.	.	4ff\	pax	.
4f/	4cc/)	4an\	.	.	.	.	4f\	ho	.	4an/	ho-	ho]]	.	4cc\	ho-	.
!!LO:LB:g=original
=39	=39	=39	=39	=39	=39	=39	=39	=39	=39	=39	=39	=39	=39	=39	=39	=39
*^	*	*	*	*	*	*	*	*	*	*	*	*	*	*	*	*
*	*^	*	*	*	*	*	*	*	*	*	*	*	*	*	*	*	*
!	!	!	!	!	!	!	!	!	!	!	!	!LO:TX:t=P:problem=zapis poprawiany	!	!	!	!	!	!
4c/	1r	4c\	4ee-/	4a-X\	.	2r	.	.	4c\	.	.	4a-X\	-mi	.	.	4ee-\	-mi-	.
!	!	!	!	!	!	!	!	!	!	!	!	!	!	!	!	!LO:TX:t=P:problem=zapis poprawiany	!	!
4e-/	.	4e-\	8b-/L	4g\	.	.	.	.	4e-\	.	.	4g/	.	.	.	8ddL 8b-\	-ni-	.
.	.	.	8cc/J	.	.	.	.	.	.	.	.	.	.	.	.	8cc\J	.	.
!	!	!	!	!	!	!	!	!LO:DY:a	!	!	!	!	!	!	!	!	!	!
8d/	.	8d\	8dd/	8f#X\	.	4r	.	pp	8d\	.	.	8f#X/	.	.	.	8b-\	-bus	.
!	!	!	!	!	!	!	!	!	!	!	!LO:DY:a	!	!	!	!LO:DY:a	!	!	!LO:DY:a
8r	.	8ryy	8r	8ryy	.	.	.	.	8r	.	pp	8r	.	.	pp	8r	.	pp
4d 4F#X/	.	4F#\	4dd/	4an\	.	8F#X\	.	.	8d'\	.	.	8an'/	.	.	.	8dd'\	bo-	.
.	.	.	.	.	.	8F#\	.	.	8d'\	.	.	8a'/	.	.	.	8dd'\	-nae	.
=40	=40	=40	=40	=40	=40	=40	=40	=40	=40	=40	=40	=40	=40	=40	=40	=40	=40	=40
2d 2F#X/	1r	2F#\	2dd/	8an\L	.	2F#X\	.	.	2d\	.	.	2an/	.	.	.	2dd\	vo-	.
.	.	.	.	8cc\	.	.	.	.	.	.	.	.	.	.	.	.	.	.
.	.	.	.	8dd 8a\	.	.	.	.	.	.	.	.	.	.	.	.	.	.
.	.	.	.	8cc\J	.	.	.	.	.	.	.	.	.	.	.	.	.	.
2en 2G/	.	2G\	2cc#X/	8b-\L	.	2G\	.	.	2en\	.	.	2b-/	.	.	.	2cc#X\	-lun-	.
.	.	.	.	8a\	.	.	.	.	.	.	.	.	.	.	.	.	.	.
.	.	.	.	8b-\	.	.	.	.	.	.	.	.	.	.	.	.	.	.
.	.	.	.	8g\J	.	.	.	.	.	.	.	.	.	.	.	.	.	.
=41	=41	=41	=41	=41	=41	=41	=41	=41	=41	=41	=41	=41	=41	=41	=41	=41	=41	=41
2G/	1r	2G\	1ccn 1an	8e-X\L	.	2G\	.	.	1e-X	.	.	1an	.	.	.	1ccn	-ta-	.
.	.	.	.	8c\	.	.	.	.	.	.	.	.	.	.	.	.	.	.
.	.	.	.	8d\	.	.	.	.	.	.	.	.	.	.	.	.	.	.
.	.	.	.	8e-\J	.	.	.	.	.	.	.	.	.	.	.	.	.	.
2F/	.	2Fn\	.	8f\L	.	2Fn\	.	.	.	.	.	.	.	.	.	.	.	.
.	.	.	.	8g\	.	.	.	.	.	.	.	.	.	.	.	.	.	.
.	.	.	.	8f\	.	.	.	.	.	.	.	.	.	.	.	.	.	.
.	.	.	.	8e-\J	.	.	.	.	.	.	.	.	.	.	.	.	.	.
*	*	*	*v	*v	*	*	*	*	*	*	*	*	*	*	*	*	*	*
=42	=42	=42	=42	=42	=42	=42	=42	=42	=42	=42	=42	=42	=42	=42	=42	=42	=42
8B- 8BB-/	1r	8BB-\	8b- 8d/	.	8BB-/	.	.	8d\	.	.	8b-/	.	.	.	4b-\	-tis.	.
!	!	!	!	!	!	!	!LO:DY:a	!	!	!LO:DY:a	!	!	!	!LO:DY:a	!	!	!
8r	.	8ryy	8r	.	8r	.	f	8r	.	f	8r	.	.	f	.	.	.
8.B-/L	.	4ryy	8.b-\L	.	8.B-\	.	.	8.B-/	.	.	8.b-/	in	.	.	4r	.	.
16B-/Jk	.	.	16b-\Jk	.	16B-\	.	.	16B-/	.	.	16b-/	ex-	.	.	.	.	.
4B-/	.	2ryy	4b-\	.	4B-\	.	.	4B-/	.	.	4b-/	-cel-	.	.	2r	.	.
4B-/	.	.	4b-\	.	4B-\	.	.	4B-/	.	.	4b-/	-sis	.	.	.	.	.
*	*v	*v	*	*	*	*	*	*	*	*	*	*	*	*	*	*	*
=43	=43	=43	=43	=43	=43	=43	=43	=43	=43	=43	=43	=43	=43	=43	=43	=43
*	*	*^	*	*	*	*	*	*	*	*	*	*	*	*	*	*
!	!	!LO:TX:t=P:problem=mixed beam	!	!	!	!	!	!	!	!	!	!	!	!	!	!	!LO:DY:a
4.B- 4.F/	4F 4BB-\	4.ff 4.a-X/	8B-\L	.	4B-\	.	.	4.d\	.	.	4.a-X^/	Glo	.	.	4.ff^\	Glo-	f
.	.	.	16d\L	.	.	.	.	.	.	.	.	.	.	.	.	.	.
.	.	.	16f\JJ	.	.	.	.	.	.	.	.	.	.	.	.	.	.
.	4r	.	8b-\L	.	4r	.	.	.	.	.	.	.	.	.	.	.	.
8d/	.	8b-/	16f\L	.	.	.	.	8d\	.	.	8a-/	.	.	.	8b-\	-ri-	.
.	.	.	16g\JJ	.	.	.	.	.	.	.	.	.	.	.	.	.	.
2d/	4.B-\	4b-/	8a-\L	.	4.B-\	.	.	4d\	.	.	4a-/	.	.	.	4b-\	-a	.
.	.	.	8f\	.	.	.	.	.	.	.	.	.	.	.	.	.	.
.	.	4ryy	8b-\	.	.	.	.	4r	.	.	4r	.	.	.	4r	.	.
.	8BB-\	.	8a-\J	.	8BB-/	.	.	.	.	.	.	.	.	.	.	.	.
=44	=44	=44	=44	=44	=44	=44	=44	=44	=44	=44	=44	=44	=44	=44	=44	=44	=44
!	!	!LO:TX:t=P:problem=mixed beam	!	!	!	!	!	!	!	!	!	!	!	!	!	!	!
4.G 4.E-/	4BB-\	4.ee- 4.g/	8B-\L	.	4BB-/	.	.	4.e-\	.	.	4.g^/	.	.	.	4.ee-^\	glo-	.
.	.	.	16e-\L	.	.	.	.	.	.	.	.	.	.	.	.	.	.
.	.	.	16g\JJ	.	.	.	.	.	.	.	.	.	.	.	.	.	.
.	4r	.	8b-\L	.	4r	.	.	.	.	.	.	.	.	.	.	.	.
8B-/	.	8g/	16e-\L	.	.	.	.	8e-\	.	.	8g/	.	.	.	8b-\	-ri-	.
.	.	.	16f\JJ	.	.	.	.	.	.	.	.	.	.	.	.	.	.
4B-/	4.B-\	4b-/	8g\L	.	4.B-^\	.	.	4e-\	.	.	4g/	.	.	.	4b-\	-a	.
.	.	.	8e-\	.	.	.	.	.	.	.	.	.	.	.	.	.	.
4r	.	4r	8B-\	.	.	.	.	4r	.	.	4r	.	.	.	4r	.	.
.	8BB-\	.	8b-\J	.	8BB-/	.	.	.	.	.	.	.	.	.	.	.	.
=45	=45	=45	=45	=45	=45	=45	=45	=45	=45	=45	=45	=45	=45	=45	=45	=45	=45
8F/L	4BB-\	4.dd-X/	4b- 4f\	.	4BB-/	.	.	4.f^\	.	.	4.b-^/	.	.	.	4.dd-X^\	in	.
16B-/L	.	.	.	.	.	.	.	.	.	.	.	.	.	.	.	.	.
16d-X/JJ	.	.	.	.	.	.	.	.	.	.	.	.	.	.	.	.	.
4ryy	4r	.	8f\L	.	4r	.	.	.	.	.	.	.	.	.	.	.	.
.	.	8dd-/	8b-\J	.	.	.	.	8f\	.	.	8b-/	.	.	.	8dd-\	ex-	.
4.d-X/	4.B-\	4dd-/	8dd-L 8f\	.	4.B-^\	.	.	4f\	.	.	4b-/	.	.	.	4dd-\	-cel-	.
.	.	.	8b-\	.	.	.	.	.	.	.	.	.	.	.	.	.	.
.	.	4dd-/	8g\	.	.	.	.	4f\	.	.	4b-/	.	.	.	4dd-\	-sis	.
8d-/	8B-\	.	8f\J	.	8B-\	.	.	.	.	.	.	.	.	.	.	.	.
=46	=46	=46	=46	=46	=46	=46	=46	=46	=46	=46	=46	=46	=46	=46	=46	=46	=46
!	!	!LO:TX:t=P:problem=mixed beam	!	!	!	!	!	!	!	!	!	!	!	!	!	!	!
8B-\	4BB-\	(4dd-X/	8f\L	.	4.B-\	.	.	2f\	.	.	2g/	.	.	.	2dd-X\	De-	.
8ryy	.	.	16d\L	.	.	.	.	.	.	.	.	.	.	.	.	.	.
.	.	.	16B-\JJ	.	.	.	.	.	.	.	.	.	.	.	.	.	.
!	!	!LO:TX:t=P:problem=mixed beam	!	!	!	!	!	!	!	!	!	!	!	!	!	!	!
4ryy	4r	8b-/L)	8G\L	.	.	.	.	.	.	.	.	.	.	.	.	.	.
.	.	8g/J	8f\J	.	8B-\	.	.	.	.	.	.	.	.	.	.	.	.
2c/	4.B-\	4cc/	8en\L	.	4B-\	.	.	4en\	.	.	4g/	.	.	.	4cc\	-o	.
.	.	.	8g\	.	.	.	.	.	.	.	.	.	.	.	.	.	.
.	.	4ryy	8cc\	.	4B-\	.	.	4r	.	.	4r	.	.	.	4r	.	.
.	8BB-\	.	8een\J	.	.	.	.	.	.	.	.	.	.	.	.	.	.
!!LO:PB:g=original
*v	*v	*	*	*	*	*	*	*	*	*	*	*	*	*	*	*	*
=47	=47	=47	=47	=47	=47	=47	=47	=47	=47	=47	=47	=47	=47	=47	=47	=47
!	!LO:TX:t=P:problem=mixed beam	!	!	!	!	!	!	!	!LO:DY:a	!	!	!	!LO:DY:a	!	!	!LO:DY:a
4BB-\	(4.gg 4.een 4.cc/	8B-\L	.	4B-\	a	.	4.en\	.	f	4.cc\	.	.	f	4.gg\	Glo-	f
.	.	16en\L	.	.	.	.	.	.	.	.	.	.	.	.	.	.
.	.	16g\JJ	.	.	.	.	.	.	.	.	.	.	.	.	.	.
4r	.	8cc\L	.	4r	.	.	.	.	.	.	.	.	.	.	.	.
.	8cc/)	8gJ 8e\	.	.	.	.	8e\	.	.	8g/	.	.	.	8cc\	-ri-	.
4.B-\	4cc/	8e\L	.	4.B-^\	glo-	.	4e\	.	.	4g/	.	.	.	4cc\	-a	.
.	.	8g\	.	.	.	.	.	.	.	.	.	.	.	.	.	.
.	4ryy	8B-\	.	.	.	.	4r	.	.	4r	.	.	.	4r	.	.
8BB-\	.	8cc\J	.	8BB-/	-ri-	.	.	.	.	.	.	.	.	.	.	.
=48	=48	=48	=48	=48	=48	=48	=48	=48	=48	=48	=48	=48	=48	=48	=48	=48
!	!LO:TX:t=P:problem=mixed beam	!	!	!	!	!	!	!	!	!	!	!	!	!	!	!
4BB-\	(4.ff 4.cc 4.a-/	8c\L	.	4BB-/	-a.	.	4.c\	.	.	4.a-/	.	.	.	4.ff\	glo-	.
.	.	16f\L	.	.	.	.	.	.	.	.	.	.	.	.	.	.
.	.	16a-\JJ	.	.	.	.	.	.	.	.	.	.	.	.	.	.
4r	.	8cc\L	.	4r	.	.	.	.	.	.	.	.	.	.	.	.
.	8cc 8a-/)	8f\J	.	.	.	.	8e-\	.	.	8a-/	.	.	.	8cc\	-ri-	.
4.B-\	4cc 4a-/	8f\L	.	4.B-^\	glo-	.	4f\	.	.	4a-/	.	.	.	4cc\	-a	.
.	.	8c\	.	.	.	.	.	.	.	.	.	.	.	.	.	.
.	8r	8f\	.	.	.	.	4r	.	.	4r	.	.	.	4r	.	.
8BB-\	8cc/	8a-\J	.	8BB-/	-ri-	.	.	.	.	.	.	.	.	.	.	.
=49	=49	=49	=49	=49	=49	=49	=49	=49	=49	=49	=49	=49	=49	=49	=49	=49
*^	*	*	*	*	*	*	*	*	*	*	*	*	*	*	*	*
4.B-/	4BB-\	1ee-	8g\L	.	4BB-/	-a	.	4.B-\	.	.	4.g/	.	.	.	4.ee-\	in	.
.	.	.	8b-\	.	.	.	.	.	.	.	.	.	.	.	.	.	.
.	4B-\	.	8e-\	.	4r	.	.	.	.	.	.	.	.	.	.	.	.
8c/	.	.	8g\J	.	.	.	.	8c\	.	.	8g/	.	.	.	8ee-\	ex-	.
8c/L	4An\	.	4f#X\	.	4An\	in	.	4c\	.	.	4f/	.	.	.	4ee-\	-cel-	.
8e-/	.	.	.	.	.	.	.	.	.	.	.	.	.	.	.	.	.
8B-/	4B-\	.	4g\	.	4B-\	ex-	.	4B-\	.	.	4g/	.	.	.	4ee-\	-sis	.
8e-/J	.	.	.	.	.	.	.	.	.	.	.	.	.	.	.	.	.
=50	=50	=50	=50	=50	=50	=50	=50	=50	=50	=50	=50	=50	=50	=50	=50	=50	=50
4ryy	4B-\	(4ee-/	8a-X\	.	(4B-\	-cel-	.	2f\	.	.	(4a-X/	.	.	.	(4ee-\	de-	.
.	.	.	(4f\	.	.	.	.	.	.	.	.	.	.	.	.	.	.
2B-/	2BB-\	8dd/L	.	.	4BB-/)	.	.	.	.	.	8fn/L	.	.	.	8dd\L	.	.
.	.	8cc/J	8e-\	.	.	.	.	.	.	.	8e-/J)	.	.	.	8cc\J)	.	.
.	.	8b-/)	4d\)	.	4BB-/	-sis.	.	8B-\	.	.	8d/	.	.	.	8b-\	-o!	.
.	.	8r	.	.	.	.	.	8r	.	.	8r	.	.	.	8r	.	.
8c/L	8C\L	4b-/	8e-\L	.	8C/L	Lau-	.	4B-\	Lau-	.	4b-\	.	.	.	4b-\	Lau-	.
8d/J	8D\J	.	8f\J	.	8D/J	.	.	.	.	.	.	.	.	.	.	.	.
=51	=51	=51	=51	=51	=51	=51	=51	=51	=51	=51	=51	=51	=51	=51	=51	=51	=51
*	*^	*	*	*	*	*	*	*	*	*	*	*	*	*	*	*	*
8e-/L	8E-\	2EE-\	4b- 4g/	4ryy	.	4E-\	-da-	.	2e-\	-da-	.	(4g/	.	.	.	(4b-\	-da-	.
8E-/	8ryy	.	.	.	.	.	.	.	.	.	.	.	.	.	.	.	.	.
8F/	4ryy	.	4gg 4b-\	4ryy	.	8F\L	-mus	.	.	.	.	4b-\	.	.	.	4gg\)	.	.
8G/J	.	.	.	.	.	8G\J	.	.	.	.	.	.	.	.	.	.	.	.
8A-/L	4.AA-\	2ryy	4.ff/	2cc 2f^\	.	8G\L	te,	.	2f\	-mus	.	4.cc\)	.	.	.	4.ff\	.	.
8G/	.	.	.	.	.	8G\J	.	.	.	.	.	.	.	.	.	.	.	.
8A-/	.	.	.	.	.	8A-\L	glo-	.	.	.	.	.	.	.	.	.	.	.
8An/J	8AAn\	.	8ee-/	.	.	8An\J	.	.	.	.	.	8cc\	.	.	.	8ee-\	-mus	.
*	*v	*v	*	*	*	*	*	*	*	*	*	*	*	*	*	*	*	*
=52	=52	=52	=52	=52	=52	=52	=52	=52	=52	=52	=52	=52	=52	=52	=52	=52	=52
*	*	*	*^	*	*	*	*	*	*	*	*	*	*	*	*	*	*
8B-/L	4.BB-\	4.b-/	4.b-\	1dd 1f	.	8B-\L	-ri-	.	4.f\	te	.	4.a-/	te	.	.	4.dd\	te	.
8An/	.	.	.	.	.	8An\J	.	.	.	.	.	.	.	.	.	.	.	.
8B-/J	.	.	.	.	.	8B-\L	-fi-	.	.	.	.	.	.	.	.	.	.	.
8Bn/	8BBn\	8ryy	8a-\	.	.	8Bn\J	.	.	8f\	glo-	.	8a-/	glo-	.	.	8dd\	glo-	.
8c/L	4.C\	4.cc/	2a-\	.	.	8c\L	-ca-	.	4.e-\	-ri-	.	4.a-/	-ri-	.	.	4.cc\	-ri-	.
8B/	.	.	.	.	.	8B\J	.	.	.	.	.	.	.	.	.	.	.	.
8c/	.	.	.	.	.	8c\L	-mus	.	.	.	.	.	.	.	.	.	.	.
8d/J	8D\	8b-/	.	.	.	8d\J	.	.	8f\	-fi-	.	8a-/	-fi-	.	.	8a-/	-fi-	.
*	*	*	*v	*v	*	*	*	*	*	*	*	*	*	*	*	*	*	*
=53	=53	=53	=53	=53	=53	=53	=53	=53	=53	=53	=53	=53	=53	=53	=53	=53	=53
8e-/L	4E-\	4b-/	4g\	.	8e-\	te,	.	4e-\	-ca-	.	(4g/	-ca-	.	.	(4b-\	-ca-	.
8E-/	.	.	.	.	8r	.	.	.	.	.	.	.	.	.	.	.	.
8F/	4EE-\	4gg/	4b-/	.	8E-\L	et	.	4e-\	-mus	.	4b-\	-mus	.	.	4gg\	.	.
8G/J	.	.	.	.	8G\J	.	.	.	.	.	.	.	.	.	.	.	.
8A-/L	4.AA-\	4.ff/	2cc 2f\	.	8A-\L	gra-	.	4.e-\	te	.	4.cc\)	te	.	.	4.ff\)	.	.
8G/	.	.	.	.	8G\J	.	.	.	.	.	.	.	.	.	.	.	.
8A-/	.	.	.	.	8A-\L	-ti	.	.	.	.	.	.	.	.	.	.	.
8An/J	8AAn\	8ee-/	.	.	8An\J	.	.	8f\	.	.	8cc\	et	.	.	8ee-\	-mus	.
!!LO:LB:g=original
=54	=54	=54	=54	=54	=54	=54	=54	=54	=54	=54	=54	=54	=54	=54	=54	=54	=54
8B-/L	4.BB-\	4ee-/	1a- 1f	.	8B-\L	.	.	[2.f\	gra-	.	4a-/	gra-	.	.	4ee-\	te	.
8An/	.	.	.	.	8An\J	.	.	.	.	.	.	.	.	.	.	.	.
!	!	!	!	!	!	!	!	!	!	!	!	!	!	!	!LO:TX:t=P:problem=zapis poprawiany	!	!
8B-/	.	4dd/	.	.	8B-\L	.	.	.	.	.	4a-/	-tias,	.	.	4dd\	et	.
8Bn/J	8BBn\	.	.	.	8Bn\J	.	.	.	.	.	.	.	.	.	.	.	.
8c/L	4.C\	4.cc/	.	.	8c\L	.	.	.	.	.	4.a-/	gra-	.	.	4.cc\	gra-	.
8Bn/	.	.	.	.	8B\J	.	.	.	.	.	.	.	.	.	.	.	.
8c/	.	.	.	.	8c\L	.	.	8f\]	.	.	.	.	.	.	.	.	.
8d/J	8D\	8b-/	.	.	8d\J	.	.	8f\	-tias	.	8a-/	-tias	.	.	8b-\	-tias	.
=55	=55	=55	=55	=55	=55	=55	=55	=55	=55	=55	=55	=55	=55	=55	=55	=55	=55
*	*	*	*^	*	*	*	*	*	*	*	*	*	*	*	*	*	*
8e-/L	4.E-\	4.b-/	[4.g\	1g 1e-	.	(4.e-^\	.	.	(4.g\	.	.	2g/	.	.	.	(4.b-\	a-	.
8f/	.	.	.	.	.	.	.	.	.	.	.	.	.	.	.	.	.	.
8e-/	.	.	.	.	.	.	.	.	.	.	.	.	.	.	.	.	.	.
8d/J	8D\	8bn/	8g] 8f\	.	.	8d\)	.	.	8f\)	.	.	.	.	.	.	8bn\)	.	.
8c/L	4.C\	4.cc/	4.e-\	.	.	4.c^\	.	.	4.e-\	.	.	4.g/	.	.	.	4.cc\	-gi-	.
8d/	.	.	.	.	.	.	.	.	.	.	.	.	.	.	.	.	.	.
8c/	.	.	.	.	.	.	.	.	.	.	.	.	.	.	.	.	.	.
8dJ 8B-/	8BB-\	8dd/	8d\	.	.	8B-\	.	.	8d\	.	.	8g/	.	.	.	8dd\	-mus	.
*	*	*	*v	*v	*	*	*	*	*	*	*	*	*	*	*	*	*	*
=56	=56	=56	=56	=56	=56	=56	=56	=56	=56	=56	=56	=56	=56	=56	=56	=56	=56
*	*^	*	*	*	*	*	*	*	*	*	*	*	*	*	*	*	*
1c	4.AA-\	8A-\L	4.ee-/	4.cc\	.	4.A-^\	.	.	4.c\	.	.	4.cc\	.	.	.	4.ee-\	ti-	.
.	.	8B-\	.	.	.	.	.	.	.	.	.	.	.	.	.	.	.	.
.	.	8A-\	.	.	.	.	.	.	.	.	.	.	.	.	.	.	.	.
.	8GG\	8G\J	8een/	8b-\	.	8G\	.	.	8c\	.	.	8b-\	.	.	.	8een\	-bi	.
.	4.FF\	8F\L	4.ff/	4.a-\	.	4.F^\	.	.	4.c\	.	.	4.a-/	.	.	.	4.ff\	pro-	.
.	.	8G\	.	.	.	.	.	.	.	.	.	.	.	.	.	.	.	.
.	.	8F\	.	.	.	.	.	.	.	.	.	.	.	.	.	.	.	.
.	8EE-\	8E-\J	8gg/	8g\	.	8E-\	.	.	8c\	.	.	8cc\	.	.	.	8gg\	-pter	.
=57	=57	=57	=57	=57	=57	=57	=57	=57	=57	=57	=57	=57	=57	=57	=57	=57	=57	=57
2.B-/	2DD\	8D\L	(2aa- (2ff/	2.b-\	.	8D/L	.	.	2f\	.	.	2.b-\	.	.	.	(2aa-\	ma-	.
.	.	8BB-\	.	.	.	8BB-/J	.	.	.	.	.	.	.	.	.	.	.	.
.	.	8C\	.	.	.	8C/L	.	.	.	.	.	.	.	.	.	.	.	.
.	.	8D\J	.	.	.	8D/J	.	.	.	.	.	.	.	.	.	.	.	.
.	4EE-\	8E-\L	4gg 4ee-/))	.	.	8E-\L	.	.	2e-\	.	.	.	.	.	.	4gg\)	.	.
.	.	8F\J	.	.	.	8F\J	.	.	.	.	.	.	.	.	.	.	.	.
4ryy	4GG\	8G\L	4ee- 4b- 4e-/	4ryy	.	8G\	.	.	.	.	.	4b-\	.	.	.	4ee-\	-gnam	.
.	.	16A-\L	.	.	.	16A-\LL	.	.	.	.	.	.	.	.	.	.	.	.
.	.	16B-\JJ	.	.	.	16B-\JJ	.	.	.	.	.	.	.	.	.	.	.	.
*	*v	*v	*	*	*	*	*	*	*	*	*	*	*	*	*	*	*	*
=58	=58	=58	=58	=58	=58	=58	=58	=58	=58	=58	=58	=58	=58	=58	=58	=58	=58
8c-X/L	2C-X\	2ee-/	8a-L 8e-\	.	2c-X\	.	.	4e-\	.	.	4a-/	.	.	.	4ee-\	glo-	.
8F/	.	.	8f\	.	.	.	.	.	.	.	.	.	.	.	.	.	.
8A-/	.	.	8a-\	.	.	.	.	4e-\	.	.	4a-/	.	.	.	4ee-\	-riam	.
8c-/J	.	.	8f\J	.	.	.	.	.	.	.	.	.	.	.	.	.	.
8B-/L	4BB-\	2dd/	8f\L	.	4B-\	.	.	2f\	.	.	2a-/	.	.	.	2dd\	tu-	.
8A-/	.	.	8a-\	.	.	.	.	.	.	.	.	.	.	.	.	.	.
8G/	4r	.	8g\	.	4r	.	.	.	.	.	.	.	.	.	.	.	.
8F/J	.	.	8f\J	.	.	.	.	.	.	.	.	.	.	.	.	.	.
=59	=59	=59	=59	=59	=59	=59	=59	=59	=59	=59	=59	=59	=59	=59	=59	=59	=59
8r	2EE-\	4ee- 4g/	4e-\	.	8r	.	.	2e-\	.	.	(4g/	.	.	.	(4ee-\	-am	.
8E-/L	.	.	.	.	(8E-\L	.	.	.	.	.	.	.	.	.	.	.	.
8F/	.	4gg 4b-/	4ryy	.	8F\	.	.	.	.	.	4b-/)	.	.	.	4gg\)	.	.
8G/J	.	.	.	.	8G\J	.	.	.	.	.	.	.	.	.	.	.	.
8A-/L	4.AA-\	4.ff/	2cc\	.	8A-\L	.	.	4.e-\	.	.	4.cc\	.	.	.	4.ff\	Be-	.
8G/	.	.	.	.	8G\J	.	.	.	.	.	.	.	.	.	.	.	.
8A-/	.	.	.	.	8A-\L)	.	.	.	.	.	.	.	.	.	.	.	.
8An/J	8AAn\	8ee-/	.	.	8An\J	.	.	8f\	.	.	8cc\	.	.	.	8ee-\	-ne-	.
=60	=60	=60	=60	=60	=60	=60	=60	=60	=60	=60	=60	=60	=60	=60	=60	=60	=60
8B-/L	4.BB-\	2dd/	1a- 1f	.	(8B-\L	.	.	2f\	.	.	2a-/	.	.	.	2dd\	-di-	.
8An/	.	.	.	.	8An\	.	.	.	.	.	.	.	.	.	.	.	.
8B-/	.	.	.	.	8B-\	.	.	.	.	.	.	.	.	.	.	.	.
!	!	!	!	!	!LO:TX:t=P:problem=zapis poprawiany	!	!	!	!	!	!	!	!	!	!	!	!
8Bn/J	8BBn\	.	.	.	8Bn\J)	.	.	.	.	.	.	.	.	.	.	.	.
8c/L	4.C\	4cc/	.	.	8c\L	.	.	4e-\	.	.	4a-/	.	.	.	4cc\	-ci-	.
8B/	.	.	.	.	8B\J	.	.	.	.	.	.	.	.	.	.	.	.
8c/	.	4b-/	.	.	8c\L	.	.	4f\	.	.	4a-/	.	.	.	(4b-\	-mus	.
8d/J	8D\	.	.	.	8d\J	.	.	.	.	.	.	.	.	.	.	.	.
!!LO:PB:g=original
=61	=61	=61	=61	=61	=61	=61	=61	=61	=61	=61	=61	=61	=61	=61	=61	=61	=61
!LO:TX:t=P:problem=powtórka taktów 53-57	!	!LO:TX:t=P:problem=powtórka taktów 53-57	!	!	!	!	!	!	!	!	!	!	!	!	!	!	!
8e-/L	4E-\	4b-/	4g\	.	8e-\	.	.	4e-\	.	.	(4g/	.	.	.	(4b-\)	te.	.
8E-/	.	.	.	.	8r	.	.	.	.	.	.	.	.	.	.	.	.
8F/	4EE-\	4gg/	4b-/	.	8F\L	.	.	[2e-\	.	.	(4b-/)	.	.	.	(4gg\)	A-	.
8G/J	.	.	.	.	8G\J	.	.	.	.	.	.	.	.	.	.	.	.
8A-/L	4.AA-\	4.ff/	2cc 2f\	.	8A-\L	.	.	.	.	.	4.cc\)	.	.	.	4.ff\)	.	.
8G/	.	.	.	.	8G\J	.	.	.	.	.	.	.	.	.	.	.	.
8A-/	.	.	.	.	8A-\L	.	.	8e-\]	.	.	.	.	.	.	.	.	.
8An/J	8AAn\	8ee-/	.	.	8An\J	.	.	8f\	.	.	8cc\	.	.	.	8ee-\	-do	.
=62	=62	=62	=62	=62	=62	=62	=62	=62	=62	=62	=62	=62	=62	=62	=62	=62	=62
8B-/L	4.BB-\	4ee-/	1a- 1f	.	8B-\L	.	.	2.f\	.	.	4.a-/	.	.	.	4ee-\	ra-	.
8An/	.	.	.	.	8An\J	.	.	.	.	.	.	.	.	.	.	.	.
!	!	!	!	!	!	!	!	!	!	!	!	!	!	!	!LO:TX:t=P:problem=zapis poprawiany	!	!
8B-/	.	4dd/	.	.	8B-\L	.	.	.	.	.	.	.	.	.	4cc\	-mus	.
8Bn/J	8BBn\	.	.	.	8Bn\J	.	.	.	.	.	8a-/	.	.	.	.	.	.
8c/L	4.C\	4.cc/	.	.	8c\L	.	.	.	.	.	4a-/	.	.	.	(4cc\	te	.
8Bn/	.	.	.	.	8B\J	.	.	.	.	.	.	.	.	.	.	.	.
8c/	.	.	.	.	8c\L	.	.	4f\	.	.	4a-/	.	.	.	4b-\)	.	.
8d/J	8D\	8b-/	.	.	8d\J	.	.	.	.	.	.	.	.	.	.	.	.
=63	=63	=63	=63	=63	=63	=63	=63	=63	=63	=63	=63	=63	=63	=63	=63	=63	=63
*	*	*	*^	*	*	*	*	*	*	*	*	*	*	*	*	*	*
8e-/L	4.E-\	4.b-/	[4.g\	1g 1e-	.	4.e-^\	.	.	4.g\	.	.	4.g/	.	.	.	4.b-\	gra-	.
8f/	.	.	.	.	.	.	.	.	.	.	.	.	.	.	.	.	.	.
8e-/	.	.	.	.	.	.	.	.	.	.	.	.	.	.	.	.	.	.
8d/J	8D\	8bn/	8g] 8f\	.	.	8d\	.	.	8f\	.	.	8g/	.	.	.	8bn\	-tias	.
8c/L	4.C\	4.cc/	4.e-\	.	.	4.c^\	.	.	4.e-\	.	.	4.g/	.	.	.	4.cc\	ti-	.
8d/	.	.	.	.	.	.	.	.	.	.	.	.	.	.	.	.	.	.
8c/	.	.	.	.	.	.	.	.	.	.	.	.	.	.	.	.	.	.
8dJ 8B-/	8BB-\	8dd/	8d\	.	.	8B-\	.	.	8d\	.	.	8g/	.	.	.	8dd\	-bi	.
*	*	*	*v	*v	*	*	*	*	*	*	*	*	*	*	*	*	*	*
=64	=64	=64	=64	=64	=64	=64	=64	=64	=64	=64	=64	=64	=64	=64	=64	=64	=64
*	*^	*	*	*	*	*	*	*	*	*	*	*	*	*	*	*	*
1c	4.AA-\	8A-\L	4.ee-/	4.cc\	.	4.A-^\	.	.	4.c\	.	.	4.cc\	.	.	.	4.ee-\	gra-	.
.	.	8B-\	.	.	.	.	.	.	.	.	.	.	.	.	.	.	.	.
.	.	8A-\	.	.	.	.	.	.	.	.	.	.	.	.	.	.	.	.
!	!	!	!	!	!	!	!	!	!LO:TX:t=P:problem=zapis poprawiany	!	!	!	!	!	!	!	!	!
.	8GG\	8G\J	8een/	8b-\	.	8G\	.	.	8c\	.	.	8b-/	.	.	.	8een\	-tias	.
.	4.FF\	8F\L	4.ff/	4.a-\	.	4.F^\	.	.	4c\	.	.	4.a-/	.	.	.	4.ff\	pro-	.
.	.	8G\	.	.	.	.	.	.	.	.	.	.	.	.	.	.	.	.
.	.	8F\	.	.	.	.	.	.	4c\	.	.	.	.	.	.	.	.	.
.	8EE-\	8E-\J	8gg/	8g\	.	8E-\	.	.	.	.	.	8cc\	.	.	.	8gg\	-pter	.
=65	=65	=65	=65	=65	=65	=65	=65	=65	=65	=65	=65	=65	=65	=65	=65	=65	=65	=65
2.B-/	2DD\	8D\L	(2aa- (2ff/	2.b-\	.	8D/L	.	.	2f\	.	.	2.b-\	.	.	.	(2aa-\	ma-	.
.	.	8BB-\	.	.	.	8BB-/J	.	.	.	.	.	.	.	.	.	.	.	.
.	.	8C\	.	.	.	8C/L	.	.	.	.	.	.	.	.	.	.	.	.
.	.	8D\J	.	.	.	8D/J	.	.	.	.	.	.	.	.	.	.	.	.
.	4EE-\	8E-\L	4gg 4ee-/))	.	.	8E-\L	.	.	2e-\	.	.	.	.	.	.	4gg\)	.	.
.	.	8F\J	.	.	.	8F\J	.	.	.	.	.	.	.	.	.	.	.	.
4ryy	4GG\	8G\L	4ee- 4b- 4e-/	4ryy	.	8G\	.	.	.	.	.	4b-\	.	.	.	4ee-\	-gnam	.
.	.	16A-\L	.	.	.	16A-\LL	.	.	.	.	.	.	.	.	.	.	.	.
.	.	16B-\JJ	.	.	.	16B-\JJ	.	.	.	.	.	.	.	.	.	.	.	.
*	*v	*v	*	*	*	*	*	*	*	*	*	*	*	*	*	*	*	*
=66	=66	=66	=66	=66	=66	=66	=66	=66	=66	=66	=66	=66	=66	=66	=66	=66	=66
8c-X/L	2C-X\	2ee-/	8a-\L	.	2c-X\	.	.	4e-\	.	.	4a-/	.	.	.	4.ee-\	glo-	.
8F/	.	.	8f\	.	.	.	.	.	.	.	.	.	.	.	.	.	.
8A-/	.	.	8a-\	.	.	.	.	4e-\	.	.	4a-/	.	.	.	.	.	.
8c-/J	.	.	8f\J	.	.	.	.	.	.	.	.	.	.	.	8ee-\	-riam	.
8B-/L	4BB-\	4dd/	4f\	.	4B-\	.	.	4B-\	.	.	4f/	.	.	.	4dd\	tu-	.
8G/J	.	.	.	.	.	.	.	.	.	.	.	.	.	.	.	.	.
4d/	4ryy	4ff/	4b-/	.	4d\	.	.	4f\	.	.	4b-/	.	.	.	4ff\	-am	.
!!LO:LB:g=original
=67	=67	=67	=67	=67	=67	=67	=67	=67	=67	=67	=67	=67	=67	=67	=67	=67	=67
*	*	*	*^	*	*	*	*	*^	*	*	*	*	*	*	*	*	*
4d/	4D-X\	2een/	4b-\	2g\	.	4d-X\	.	.	4d^/	4.g\	.	.	4b-^\	Glo-	.	.	4.een^\	Glo-	.
8c/L	4C\	.	8cc\L	.	.	8c\L	.	.	8c\L	.	.	.	8cc\L	-ri	.	.	.	.	.
8B-/J	.	.	8dd-X\J	.	.	8B-\J	.	.	8d\J	8G/	.	.	8dd-X\J	.	.	.	8ee\	-ria	.
8A-/L	8A-\L	4ff/	8cc\L	2ryy	.	8A-\L	.	.	8A-/L	2ryy	.	.	8cc\L	.	.	.	4ff\	in	.
8G/J	8G\J	.	8b-\J	.	.	8G\J	.	.	8B-/J	.	.	.	8b-\J	.	.	.	.	.	.
4F/	4F\	8cc/L	4a-\	.	.	4F\	.	.	4c\	.	.	.	4a-\	.	.	.	4ff\	ex-	.
.	.	8ff/J	.	.	.	.	.	.	.	.	.	.	.	.	.	.	.	.	.
*	*	*	*	*	*	*	*	*	*v	*v	*	*	*	*	*	*	*	*	*
=68	=68	=68	=68	=68	=68	=68	=68	=68	=68	=68	=68	=68	=68	=68	=68	=68	=68	=68
4e-/	4E-\	2ff#X/	4cc\	2an\	.	4e-\	.	.	4e-^\	.	.	4cc^\	.	.	.	4.ff^\	-cel-	.
8d/L	4D\	.	8dd\L	.	.	8dn\L	.	.	8dn\L	.	.	8ddn\L	.	.	.	.	.	.
8c/J	.	.	8ee-\J	.	.	8c\J	.	.	8e-\J	.	.	8ee-\J	.	.	.	8ff\	-sis	.
8B-/L	8B-\L	4gg/	8dd\L	2ryy	.	8B-\L	.	.	8B-\L	.	.	8dd\L	.	.	.	4gg\	De-	.
8An/J	8A\J	.	8cc\J	.	.	8An\J	.	.	8c\J	.	.	8cc\J	.	.	.	.	.	.
4G/	4G\	8dd/L	4ryy	.	.	4G\	.	.	4d\	.	.	4b-\	.	.	.	4g/	-o	.
.	.	8gg/J	.	.	.	.	.	.	.	.	.	.	.	.	.	.	.	.
*	*	*	*v	*v	*	*	*	*	*	*	*	*	*	*	*	*	*	*
=69	=69	=69	=69	=69	=69	=69	=69	=69	=69	=69	=69	=69	=69	=69	=69	=69	=69
*	*	*	*	*	*	*	*	*	*	*	*	*	*	*	*^	*	*
!	!	!	!	!	!	!	!	!	!	!	!LO:TX:b:t=g	!	!	!	!LO:TX:a:t=Solo	!	!	!
2e- 2c/	4C\	4gg/	8ee-\L	.	4c\	.	.	4e-\	.	.	4ee- 4g\	.	.	.	2gg/	4ee-\	in	.
.	.	.	8g\	.	.	.	.	.	.	.	.	.	.	.	.	.	.	.
!	!	!	!	!	!	!	!	!	!	!	!LO:TX:b:t=g	!	!	!	!	!	!	!
.	4c\	4ryy	8ee- 8cc\	.	4c\	.	.	4e-\	.	.	4ee- 4g\	.	.	.	.	4ee-\	ex-	.
.	.	.	8gg\J	.	.	.	.	.	.	.	.	.	.	.	.	.	.	.
!	!	!	!	!	!	!	!	!	!	!	!	!	!	!	!LO:TX:a:t=[[Solo]]	!	!	!
2e- 2c-X/	4c-\	4aa-/	8ee-\L	.	4c-X\	.	.	4e-\	.	.	4ee- 4a-\	.	.	.	2aa-/	2ff\	-celsis	.
.	.	.	8a-\	.	.	.	.	.	.	.	.	.	.	.	.	.	.	.
.	4C-X\	4ryy	8ee-\	.	4c-\	.	.	4e-\	.	.	4ee- 4a-\	.	.	.	.	.	.	.
.	.	.	8aa-\J	.	.	.	.	.	.	.	.	.	.	.	.	.	.	.
=70	=70	=70	=70	=70	=70	=70	=70	=70	=70	=70	=70	=70	=70	=70	=70	=70	=70	=70
*	*	*	*	*	*^	*	*	*^	*	*	*^	*	*	*	*	*	*	*
*	*	*	*	*	*	*	*	*	*	*^	*	*	*	*^	*	*	*	*	*	*	*
*	*	*	*	*	*	*	*	*	*	*	*^	*	*	*	*	*	*	*	*	*	*	*	*
!	!	!	!	!	!	!	!	!	!	!	!	!	!	!	!	!	!	!	!	!	!LO:TX:t=P:problem=zapis poprawiany	!	!	!
4e- 4B-/	2BB-\	(2bb- 2gg\	8ee-\L	.	1B-	2.B-\	.	.	2g/	2e-\	2ryy	2ryy	.	.	1b-	2.b-\	2.b-/	.	.	.	1bb-	2ee-\	De-	.
.	.	.	8b-\	.	.	.	.	.	.	.	.	.	.	.	.	.	.	.	.	.	.	.	.	.
4ryy	.	.	8g\	.	.	.	.	.	.	.	.	.	.	.	.	.	.	.	.	.	.	.	.	.
.	.	.	8e-\J	.	.	.	.	.	.	.	.	.	.	.	.	.	.	.	.	.	.	.	.	.
4.B-\	2BB-\	2ff 2dd 2b-\	8d\L	.	.	.	.	.	2f/	2f\	4f/	4d\	.	.	.	.	.	.	.	.	.	2dd\	.	.
.	.	.	8f\J	.	.	.	.	.	.	.	.	.	.	.	.	.	.	.	.	.	.	.	.	.
.	.	.	4a-X\	.	.	4B-\	.	.	.	.	4f/	4B-\	.	.	.	4b-\	4b-/	.	.	.	.	.	.	.
8B-/	.	.	.	.	.	.	.	.	.	.	.	.	.	.	.	.	.	.	.	.	.	.	.	.
*	*	*v	*v	*	*	*	*	*	*	*v	*v	*v	*	*	*v	*v	*v	*	*	*	*	*	*	*
*	*	*	*	*v	*v	*	*	*	*	*	*	*	*	*	*	*	*	*	*
=71	=71	=71	=71	=71	=71	=71	=71	=71	=71	=71	=71	=71	=71	=71	=71	=71	=71	=71
4B- 4E-/	[1EE-	8ee- 8g/)	p	4E-\	.	.	4e-/	4B-\	.	.	4a-/	.	.	.	4ee-/	4ee-\	-o.	.
.	.	8b-/L	.	.	.	.	.	.	.	.	.	.	.	.	.	.	.	.
8B-/L	.	8gg/	.	8B-\L	in	.	4r	4ryy	.	.	4r	.	.	.	4r	4ryy	.	.
8A-/J	.	8ff/J	.	8A-\J	.	.	.	.	.	.	.	.	.	.	.	.	.	.
4G/	.	8ee-/L	.	4G\	ter-	.	2r	2ryy	.	.	2r	.	.	.	2r	2ryy	.	.
.	.	8b-/	.	.	.	.	.	.	.	.	.	.	.	.	.	.	.	.
8F/L	.	8a-/	.	8F\L	-ra	.	.	.	.	.	.	.	.	.	.	.	.	.
8E-/J	.	8g/J	.	8E-\J	.	.	.	.	.	.	.	.	.	.	.	.	.	.
*	*	*	*	*	*	*	*v	*v	*	*	*	*	*	*	*v	*v	*	*
=72	=72	=72	=72	=72	=72	=72	=72	=72	=72	=72	=72	=72	=72	=72	=72	=72
4D/	1EE-_	8f/L	.	4D/	pax	.	1r	.	.	1r	.	.	.	1r	.	.
.	.	8b-/	.	.	.	.	.	.	.	.	.	.	.	.	.	.
4C/	.	8a-X/	.	4C/	ho-	.	.	.	.	.	.	.	.	.	.	.
.	.	8ee-/J	.	.	.	.	.	.	.	.	.	.	.	.	.	.
4BB-/	.	8dd/L	.	4BB-/	-mi-	.	.	.	.	.	.	.	.	.	.	.
.	.	8ee-/	.	.	.	.	.	.	.	.	.	.	.	.	.	.
4A-/	.	8ff/	.	4A-\	-ni-	.	.	.	.	.	.	.	.	.	.	.
.	.	8b-/J	.	.	.	.	.	.	.	.	.	.	.	.	.	.
=73	=73	=73	=73	=73	=73	=73	=73	=73	=73	=73	=73	=73	=73	=73	=73	=73
*	*	*^	*	*	*	*	*	*	*	*	*	*	*	*	*	*
4G/	1EE-^]	8r	4r	.	8G\	-bus	.	1ryy	.	.	4r	.	.	.	1ryy	.	.
.	.	8gg/L	.	.	8r	.	.	.	.	.	.	.	.	.	.	.	.
4C/	.	8een/	8cc\L	.	2C/	bo-	.	.	.	.	8cc\L	in	.	.	.	.	.
.	.	8gg/J	8b-\J	.	.	.	.	.	.	.	8b-\J	.	.	.	.	.	.
4c/	.	8cc/L	4a-\	.	.	.	.	.	.	.	4a-/	ter-	.	.	.	.	.
.	.	16dd/L	.	.	.	.	.	.	.	.	.	.	.	.	.	.	.
.	.	16cc/JJ	.	.	.	.	.	.	.	.	.	.	.	.	.	.	.
4C/	.	8b-/L	8g\L	.	4C/	-nae	.	.	.	.	8g/L	-ra	.	.	.	.	.
.	.	8a-/J	8f\J	.	.	.	.	.	.	.	8f/J	.	.	.	.	.	.
!!LO:PB:g=original
=74	=74	=74	=74	=74	=74	=74	=74	=74	=74	=74	=74	=74	=74	=74	=74	=74	=74
1C	1EE-	8g/L	2ryy	.	4C/	vo-	.	1r	.	.	4e-/	pax	.	.	1r	.	.
.	.	8f/	.	.	.	.	.	.	.	.	.	.	.	.	.	.	.
.	.	8e-/	.	.	4C/	-lun-	.	.	.	.	4g/	ho-	.	.	.	.	.
.	.	8g/J	.	.	.	.	.	.	.	.	.	.	.	.	.	.	.
.	.	8cc/L	4ryy	.	2C/	-ta-	.	.	.	.	4c/	-mi-	.	.	.	.	.
.	.	8ee-/	.	.	.	.	.	.	.	.	.	.	.	.	.	.	.
.	.	8gg/	4b-\	.	.	.	.	.	.	.	4b-/	-ni-	.	.	.	.	.
.	.	8cc/J	.	.	.	.	.	.	.	.	.	.	.	.	.	.	.
=75	=75	=75	=75	=75	=75	=75	=75	=75	=75	=75	=75	=75	=75	=75	=75	=75	=75
*	*	*	*	*	*	*	*	*^	*	*	*	*	*	*	*	*	*
2.F/	1EE-	8aa-/L	4a-\	.	4F\	-tis	.	4r	2ryy	.	.	4a-/	-bus	.	.	2r	.	.
.	.	8gg/	.	.	.	.	.	.	.	.	.	.	.	.	.	.	.	.
.	.	8ff/	4an\	.	4r	.	.	8f\L	.	in	.	8an/	bo-	[[et	.	.	.	.
.	.	8ee-/J	.	.	.	.	.	8e-\J	.	.	.	8a/	-nae	in	.	.	.	.
.	.	8dd/L	4b-\	.	4r	.	.	8d\L	4ryy	te-	.	4b-/	vo-	ter]]	.	((4b-\	pax [[et	.
.	.	8ff/	.	.	.	.	.	8c\J	.	.	.	.	.	.	.	.	.	.
8B-/L	.	8gg/	[4b-\	.	4E- 4BB-/	et	.	4B-\	8c\L	-ra	.	4d/	-lun-	.	.	8gg\L	in]]	.
8A-/J	.	8ff/J	.	.	.	.	.	.	8B-\J	.	.	.	.	.	.	8ff\J)	.	.
*	*	*	*	*	*	*	*	*v	*v	*	*	*	*	*	*	*	*	*
=76	=76	=76	=76	=76	=76	=76	=76	=76	=76	=76	=76	=76	=76	=76	=76	=76	=76
!	!	!	!	!	!	!	!LO:DY:a	!	!	!	!	!	!	!	!	!	!
4G/	1EE-	8ff/L	2b-\]	.	4G\	pax	>	[2B-\	pax	.	2e-/	-ta-	.	.	8ee-\L	pax	.
!	!	!	!	!	!	!	!	!	!	!	!	!	!	!	!	!	!LO:DY:a
.	.	8ee-/	.	.	.	.	.	.	.	.	.	.	.	.	8dd\J)	.	>
4BB-/	.	8dd/	.	.	4BB-/	in	.	.	.	.	.	.	.	.	8cc\L	in	.
.	.	8cc/J	.	.	.	.	.	.	.	.	.	.	.	.	8b-\J	.	.
!	!	!	!	!	!	!	!	!	!	!	!	!	!	!	!LO:TX:a:t=c	!	!
4E-/	.	8cc/L	4g\	.	4E-\	ter-	.	8B-\]	.	.	8e-/	-tis	.	.	8cc\L	ter-	.
.	.	8b-/	.	.	.	.	.	8r	.	.	8r	.	.	.	8b-\J	.	.
4GG/	.	8a-/	4e-\	.	4GG/	-ra	]]	4E-/	et	.	4B-/	et	.	.	8a-/L	-ra	.
.	.	8g/J	.	.	.	.	.	.	.	.	.	.	.	.	8g/J	.	]
*	*	*v	*v	*	*	*	*	*	*	*	*	*	*	*	*	*	*
=77	=77	=77	=77	=77	=77	=77	=77	=77	=77	=77	=77	=77	=77	=77	=77	=77
!	!	!	!	!	!	!LO:DY:a	!	!	!LO:DY:a	!	!	!	!LO:DY:a	!	!	!LO:DY:a
[1E- 1AA-	1EE-	[1f [1c	.	4.AA-/	pax	pp	4.E-/	pax	pp	4.c/	pax	.	pp	4.f/	pax	pp
.	.	.	.	8AA-/	.	.	8E-/	.	.	8c/	.	.	.	8f/	in	.
.	.	.	.	4AA-/	.	.	4E-/	.	.	4c/	.	.	.	4f/	ter-	.
.	.	.	.	4AA-/	.	.	4E-/	.	.	4c/	.	.	.	4f/	-ra	.
=78	=78	=78	=78	=78	=78	=78	=78	=78	=78	=78	=78	=78	=78	=78	=78	=78
8E-/L]	1EE-	4.f] 4.c/]	.	2.A-\	pax	.	1c	.	.	1f	.	.	.	1ee-	pax	.
8AA-/J	.	.	.	.	.	.	.	.	.	.	.	.	.	.	.	.
[2E-/	.	.	.	.	.	.	.	.	.	.	.	.	.	.	.	.
.	.	8F/	.	.	.	.	.	.	.	.	.	.	.	.	.	.
.	.	8c/L	.	.	.	.	.	.	.	.	.	.	.	.	.	.
.	.	8f/	.	.	.	.	.	.	.	.	.	.	.	.	.	.
4E-_ 4AA-/	.	8c/	.	4AA-/	et	.	.	.	.	.	.	.	.	.	.	.
.	.	8F/J	.	.	.	.	.	.	.	.	.	.	.	.	.	.
=79	=79	=79	=79	=79	=79	=79	=79	=79	=79	=79	=79	=79	=79	=79	=79	=79
1E-_ 1AAn	[1EE-	1f 1c	.	4.AAn/	pax	.	4.E-/	.	.	4.c/	.	.	.	4.f/	et	.
.	.	.	.	8AA/	in	.	8E-/	.	.	8c/	.	.	.	8f/	in	.
.	.	.	.	4AA/	ter-	.	4E-/	.	.	4c/	.	.	.	4f/	ter-	.
.	.	.	.	4AA/	-ra	.	4E-/	.	.	4c/	.	.	.	4f/	-ra	.
!!LO:LB:g=original
=80	=80	=80	=80	=80	=80	=80	=80	=80	=80	=80	=80	=80	=80	=80	=80	=80
*	*	*^	*	*	*	*	*	*	*	*	*	*	*	*	*	*
8E-/L]	1EE-]	4.f 4.c/	2ryy	.	2.An\	pax	.	2.c\	pax	.	2.f/	pax	.	.	2.ee-\	pax	.
8AAn/J	.	.	.	.	.	.	.	.	.	.	.	.	.	.	.	.	.
[2.E-/	.	.	.	.	.	.	.	.	.	.	.	.	.	.	.	.	.
.	.	8F/|	.	.	.	.	.	.	.	.	.	.	.	.	.	.	.
!	!	!LO:TX:a:t=2	!	!	!	!	!	!	!	!	!	!	!	!	!	!	!
.	.	8c/L	8ryy	.	.	.	.	.	.	.	.	.	.	.	.	.	.
.	.	8f/|	4.f\	.	.	.	.	.	.	.	.	.	.	.	.	.	.
.	.	8cc/	.	.	4A\	.	.	4c\	.	.	4f/	.	.	.	4ee-\	et	.
.	.	8ee-/J	.	.	.	.	.	.	.	.	.	.	.	.	.	.	.
=81||	=81||	=81||	=81||	=81||	=81||	=81||	=81||	=81||	=81||	=81||	=81||	=81||	=81||	=81||	=81||	=81||	=81||
2B- 2E-/]	1EE-	2ee-/	1g-X	pp	2B-\	.	.	2B-\	.	.	2g-X/	.	.	.	2ee-\	pax	.
2G-X 2BB-/	.	2dd-X/	.	.	2BB-/	.	.	2G-X/	.	.	2g-/	.	.	.	2dd-X\	ho-	.
=82	=82	=82	=82	=82	=82	=82	=82	=82	=82	=82	=82	=82	=82	=82	=82	=82	=82
*	*^	*	*	*	*	*	*	*	*	*	*^	*	*	*	*	*	*
!	!	!	!	!	!	!	!	!	!	!	!	!LO:TX:t=P:problem=zapis poprawiany	!	!	!	!	!	!	!
[1G-X	1EE-	4C-X\	4.dd-X/	1e-	.	4.C-X/	.	.	4.G-X/	.	.	4.g-X 4.e-/	2ryy	.	.	.	4.dd-X\	-mi-	.
.	.	8qqC-\	.	.	.	.	.	.	.	.	.	.	.	.	.	.	.	.	.
.	.	4GG-X/	.	.	.	.	.	.	.	.	.	.	.	.	.	.	.	.	.
.	.	.	8cc-X/	.	.	8C-/	.	.	8G-/	.	.	8g- 8e-/	.	.	.	.	8cc-X\	-ni-	.
.	.	4C-\	2cc-/	.	.	(4C-/	.	.	2G-/	.	.	2e-/	4g- 4e-/	.	.	.	2cc-\	-bus	.
.	.	4D-X\	.	.	.	4D-X/)	.	.	.	.	.	.	4ryy	.	.	.	.	.	.
*	*	*	*v	*v	*	*	*	*	*	*	*	*v	*v	*	*	*	*	*	*
=83	=83	=83	=83	=83	=83	=83	=83	=83	=83	=83	=83	=83	=83	=83	=83	=83	=83
2G-X/]	1EE-	4E-\	4.cc-X 4.e-/	.	4.E-\	.	.	4.G-X/	.	.	4.e-/	.	.	.	4.cc-X\	bo-	.
.	.	2BB-\	.	.	.	.	.	.	.	.	.	.	.	.	.	.	.
.	.	.	8b- 8d-X/	.	8E-\	.	.	8G-/	.	.	8d-X/	.	.	.	8b-\	-nae	.
2Gn/	.	.	4b- 4d-/	.	4E-\	.	.	4Gn/	.	.	4d-/	.	.	.	4b-\	vo-	.
.	.	[4E-\	4e-/	.	4E-\	.	.	4G/	.	.	4d-/	.	.	.	4b-\	-lun-	.
=84	=84	=84	=84	=84	=84	=84	=84	=84	=84	=84	=84	=84	=84	=84	=84	=84	=84
*	*	*	*^	*	*	*	*	*	*	*	*	*	*	*	*	*	*
2A-/	1EE-	4E-\]	2.b-/	2d-X\	.	1E-	ta-	.	2A-/	.	.	2d-X/	.	.	.	2.b-\	-ta-	.
.	.	2.F\	.	.	.	.	.	.	.	.	.	.	.	.	.	.	.	.
2B-/	.	.	.	2dn\	.	.	.	.	2B-/	.	.	2dn/	.	.	.	.	.	.
.	.	.	4a-/	.	.	.	.	.	.	.	.	.	.	.	.	4a-/	-tis	.
*	*v	*v	*	*	*	*	*	*	*	*	*	*	*	*	*	*	*	*
=85	=85	=85	=85	=85	=85	=85	=85	=85	=85	=85	=85	=85	=85	=85	=85	=85	=85
4.B-/	1EE-	4.g/	1e-	.	4E-\	-tis.	.	4.B-/	.	.	4.e-/	.	.	.	4.g/	bo-	.
.	.	.	.	.	4r	.	.	.	.	.	.	.	.	.	.	.	.
8A-/	.	8a-/	.	.	.	.	.	8A-/	.	.	8e-/	.	.	.	8a-/	-nae	.
4G/	.	4b-/	.	.	2r	.	.	4G/	.	.	4e-/	.	.	.	4b-/	vo-	.
4c/	.	4e-/	.	.	.	.	.	4c\	.	.	4e-/	.	.	.	4e-/	-lun-	.
=86	=86	=86	=86	=86	=86	=86	=86	=86	=86	=86	=86	=86	=86	=86	=86	=86	=86
2F/	1EE-	1a-	2c\	.	1r	.	.	2F/	.	.	2c/	.	.	.	2.a-/	-ta-	.
2B-/	.	.	2d\	.	.	.	.	2B-/	.	.	2d/	.	.	.	.	.	.
.	.	.	.	.	.	.	.	.	.	.	.	.	.	.	4a-/	-tis	.
*	*	*v	*v	*	*	*	*	*	*	*	*	*	*	*	*	*	*
=87	=87	=87	=87	=87	=87	=87	=87	=87	=87	=87	=87	=87	=87	=87	=87	=87
4B- [4E-/	1EE-	4.g 4.e-/	.	4.E-\	bo-	.	(4B-\	.	.	4.e-/	.	.	.	4.g/	bo-	.
8cL 8E-/]	.	.	.	.	.	.	8c\	.	.	.	.	.	.	.	.	.
8dJ 8B- 8F/	.	8f 8d 8B-/	.	8F\	-nae	.	8d\)	.	.	8B-/	.	.	.	8f/	-nae	.
4B- 4G/	.	4e- 4B-/	.	4G\	vo-	.	4e-\	.	.	4B-/	.	.	.	4e-/	vo-	.
4G 4GG/	.	4e- 4B-/	.	4GG/	-lun-	.	4G/	.	.	4B-/	.	.	.	4e-/	-lun-	.
=88	=88	=88	=88	=88	=88	=88	=88	=88	=88	=88	=88	=88	=88	=88	=88	=88
*	*^	*	*	*	*	*	*	*	*	*	*	*	*	*	*	*
!	!	!	!	!	!	!	!	!LO:TX:t=P:problem=zapis poprawiany	!	!	!	!	!	!	!	!	!
1F	1EE-	2AA-/	2e- 2c/	.	(2AA-/	-ta	.	2F/	.	.	(2c/	.	.	.	(2e-/	-ta-	.
.	.	2BB-/	2d 2B-/	.	2BB-/)	.	.	2F/	.	.	2B-/)	.	.	.	(2d/)	-tis	.
!!LO:LB:g=original
*	*v	*v	*	*	*	*	*	*	*	*	*	*	*	*	*	*	*
=89	=89	=89	=89	=89	=89	=89	=89	=89	=89	=89	=89	=89	=89	=89	=89	=89
2e- 2B- 2G 2E-/	[1EE-	8r	.	[1E-	.	.	[1G	.	.	[1B-	.	.	.	[1e-)	pax	.
.	.	(8gg\L	.	.	.	.	.	.	.	.	.	.	.	.	.	.
.	.	8bb-\	.	.	.	.	.	.	.	.	.	.	.	.	.	.
.	.	8gg\J	.	.	.	.	.	.	.	.	.	.	.	.	.	.
2r	.	8ff\L	.	.	.	.	.	.	.	.	.	.	.	.	.	.
.	.	8ee-\	.	.	.	.	.	.	.	.	.	.	.	.	.	.
.	.	8dd\	.	.	.	.	.	.	.	.	.	.	.	.	.	.
.	.	8cc\J	.	.	.	.	.	.	.	.	.	.	.	.	.	.
=90	=90	=90	=90	=90	=90	=90	=90	=90	=90	=90	=90	=90	=90	=90	=90	=90
1r	1EE-_	8b-\L	.	1E-]	.	.	1G]	.	.	1B-]	.	.	.	1e-]	.	.
.	.	8ee-\	.	.	.	.	.	.	.	.	.	.	.	.	.	.
.	.	8gg\	.	.	.	.	.	.	.	.	.	.	.	.	.	.
.	.	8ee-\J	.	.	.	.	.	.	.	.	.	.	.	.	.	.
.	.	8dd\L	.	.	.	.	.	.	.	.	.	.	.	.	.	.
.	.	8cc\	.	.	.	.	.	.	.	.	.	.	.	.	.	.
.	.	8b-\	.	.	.	.	.	.	.	.	.	.	.	.	.	.
.	.	8a-\J	.	.	.	.	.	.	.	.	.	.	.	.	.	.
=91	=91	=91	=91	=91	=91	=91	=91	=91	=91	=91	=91	=91	=91	=91	=91	=91
1r	1EE-_	8g\L	.	[1E-	.	.	[1G	.	.	[1B-	.	.	.	[1e-	pax	.
.	.	8b-\	.	.	.	.	.	.	.	.	.	.	.	.	.	.
.	.	8ee-\	.	.	.	.	.	.	.	.	.	.	.	.	.	.
.	.	8cc\J	.	.	.	.	.	.	.	.	.	.	.	.	.	.
.	.	8b-/L	.	.	.	.	.	.	.	.	.	.	.	.	.	.
.	.	8a-/	.	.	.	.	.	.	.	.	.	.	.	.	.	.
.	.	8g/	.	.	.	.	.	.	.	.	.	.	.	.	.	.
.	.	8f/J	.	.	.	.	.	.	.	.	.	.	.	.	.	.
*v	*v	*	*	*	*	*	*	*	*	*	*	*	*	*	*	*
=92	=92	=92	=92	=92	=92	=92	=92	=92	=92	=92	=92	=92	=92	=92	=92
1EE-]	8e-/L	.	1E-]	.	.	1G]	.	.	1B-]	.	.	.	1e-]	.	.
.	8g/	.	.	.	.	.	.	.	.	.	.	.	.	.	.
.	8f/	.	.	.	.	.	.	.	.	.	.	.	.	.	.
.	8e-/J	.	.	.	.	.	.	.	.	.	.	.	.	.	.
.	8d/L	.	.	.	.	.	.	.	.	.	.	.	.	.	.
.	8e-/	.	.	.	.	.	.	.	.	.	.	.	.	.	.
.	8B-/	.	.	.	.	.	.	.	.	.	.	.	.	.	.
.	8G/J	.	.	.	.	.	.	.	.	.	.	.	.	.	.
=93	=93	=93	=93	=93	=93	=93	=93	=93	=93	=93	=93	=93	=93	=93	=93
!	!	!	!	!	!LO:DY:a	!	!	!LO:DY:a	!	!	!	!LO:DY:a	!	!	!LO:DY:a
[1EE-	(1E-)	.	2E-\	.	ppp	2G/	.	ppp	2B-/	.	.	ppp	2e-/	pax	ppp
.	.	.	2E-\	.	.	2B-\	.	.	2e-/	.	.	.	2g/	in	.
=94	=94	=94	=94	=94	=94	=94	=94	=94	=94	=94	=94	=94	=94	=94	=94
!	!	!	!	!	!	!	!	!	!	!	!	!	!LO:TX:t=P:problem=zapis poprawiany	!	!
1EE-_	2BB-/	.	2.E-\	.	.	2.e-\	.	.	2.g/	.	.	.	2.b-/	ter-	.
.	2B-/	.	.	.	.	.	.	.	.	.	.	.	.	.	.
.	.	.	4E-\	.	.	4B-\	.	.	4e-/	.	.	.	4g/	-ra	.
=95	=95	=95	=95	=95	=95	=95	=95	=95	=95	=95	=95	=95	=95	=95	=95
1EE-_	2G/	.	[1E-	.	.	[1G	.	.	[1B-	.	.	.	[1e-	pax.	.
.	2e-/	.	.	.	.	.	.	.	.	.	.	.	.	.	.
=96	=96	=96	=96	=96	=96	=96	=96	=96	=96	=96	=96	=96	=96	=96	=96
1EE-_	2B-/	.	1E-_	.	.	1G_	.	.	1B-_	.	.	.	1e-_	.	.
.	2g/)	.	.	.	.	.	.	.	.	.	.	.	.	.	.
=97	=97	=97	=97	=97	=97	=97	=97	=97	=97	=97	=97	=97	=97	=97	=97
1BB- 1EE-;]	1e- 1G;	.	4E-\]	.	.	4G/]	.	.	4B-/]	.	.	.	4e-/]	.	.
.	.	.	4r	.	.	4r	.	.	4r	.	.	.	4r	.	.
.	.	.	2r	.	.	2r;	.	.	2r;	.	.	.	2r;	.	.
==	==	==	==	==	==	==	==	==	==	==	==	==	==	==	==
*-	*-	*-	*-	*-	*-	*-	*-	*-	*-	*-	*-	*-	*-	*-	*-
!!!system-decoration: [(s1,s2,s3,s4)][(s5,s6)]
!!!RDF**kern: > = above
!!!RDF**kern: < = below
!!!RDF**dynam: > = "dim", fontstyle= "bold-italic"
!!!RDF**dynam: < = "cresc", fontstyle= "bold-italic"
!!!RDF**kern: | = vertical stroke
!!!RDF**kern: N = linked
!!!RDF**kern: i = editorial accidental
!!!EED: Wojciech Jakubiak-Danek
!!!EEV: 2021-07-10
!!!ENC: Andrzej Gręziak
!!!END: 2021-07-08
!!!YEC: Copyright 2022 Narodowy Instytut Fryderyka Chopina (https://polishscores.org)
!!!YEM: Licence CC BY 4.0 (https://creativecommons.org/licenses/by/4.0)
